; GCode generated by CraftWare

G28 X0 Y0
G28 Z0


M104 S220 ;set head temp (no wait)
M190 S75 ;set bed temp (wait)
M109 S220 ;set head temp (wait)

; ------------------------------------
; Raft Layer #0
; ------------------------------------
M109 S231 ;set temp override (wait)
M106 S0 ;turn off fan
G21 ; mm
G90 ; abs
G92 E0 ;reset extr
G0 F600 Z0.100
;segType:Raft
G0 F3000 E-1.0000
G0 F600 Z2.100
G0 X144.561 Y58.456 F4320
G0 F600 Z0.100
G0 F3000 E0.0000
G1 X147.134 Y55.882 E0.1513 F600
G1 X151.188 Y55.818 E0.3199
G1 X215.011 Y55.818 E2.9733
G1 X215.912 Y55.947 E3.0112
G1 X218.486 Y58.520 E3.1625
G1 X218.550 Y62.574 E3.3310
G1 X218.550 Y95.515 E4.7006
G1 X218.743 Y96.351 E4.7362
G1 X220.287 Y97.895 E4.8270
G1 X220.480 Y98.732 E4.8627
G1 X220.480 Y104.522 E5.1035
G0 X220.480 Y104.651 F4320
G1 X220.480 Y141.710 E6.6442 F600
G1 X219.580 Y142.868 E6.7052
G1 X217.521 Y144.927 E6.8262
G1 X213.467 Y144.991 E6.9948
G1 X145.526 Y144.991 E9.8195
G1 X142.502 Y141.967 E9.9973
G1 X142.502 Y98.732 E11.7948
G1 X142.695 Y97.895 E11.8305
G1 X144.239 Y96.351 E11.9213
G1 X144.432 Y95.515 E11.9569
G1 X144.432 Y62.574 E13.3265
G1 X144.497 Y58.520 E13.4950
G0 X145.363 Y58.842 F4320
G1 X145.363 Y143.769 E17.0259 F600
G0 X149.363 Y144.283 F4320
G1 X149.363 Y56.655 E20.6690 F600
G0 X153.363 Y56.655 F4320
G1 X153.363 Y144.283 E24.3122 F600
G0 X157.363 Y144.283 F4320
G1 X157.363 Y56.655 E27.9554 F600
G0 X161.363 Y56.655 F4320
G1 X161.363 Y144.283 E31.5986 F600
G0 X165.363 Y144.283 F4320
G1 X165.363 Y56.655 E35.2417 F600
G0 X169.363 Y56.655 F4320
G1 X169.363 Y144.283 E38.8849 F600
G0 X173.363 Y144.283 F4320
G1 X173.363 Y56.655 E42.5281 F600
G0 X177.363 Y56.655 F4320
G1 X177.363 Y144.283 E46.1713 F600
G0 X181.363 Y144.283 F4320
G1 X181.363 Y56.655 E49.8145 F600
G0 X185.363 Y56.655 F4320
G1 X185.363 Y144.283 E53.4576 F600
G0 X189.363 Y144.283 F4320
G1 X189.363 Y56.655 E57.1008 F600
G0 X193.363 Y56.655 F4320
G1 X193.363 Y144.283 E60.7440 F600
G0 X197.363 Y144.283 F4320
G1 X197.363 Y56.655 E64.3872 F600
G0 X201.363 Y56.655 F4320
G1 X201.363 Y144.283 E68.0303 F600
G0 X205.363 Y144.283 F4320
G1 X205.363 Y56.655 E71.6735 F600
G0 X209.363 Y56.655 F4320
G1 X209.363 Y144.283 E75.3167 F600
G0 X213.363 Y144.283 F4320
G1 X213.363 Y56.655 E78.9599 F600
G0 X217.363 Y58.585 F4320
G1 X217.363 Y144.026 E82.5121 F600
M104 S220 ;set temp back (don't wait)



; ------------------------------------
; Raft Layer #1
; ------------------------------------
M106 S0 ;turn off fan
G92 E0 ;reset extr
G0 F600 Z0.400
;segType:Raft
G0 X217.842 Y144.598 F7200
G1 X145.011 Y144.598 E3.0280 F2400
G0 X143.725 Y143.264 F7200
G1 X219.129 Y143.264 E6.1629 F2400
G0 X220.416 Y99.264 F7200
G1 X142.438 Y99.264 E9.4049 F2400
G1 X142.438 Y100.598 E9.4603
G1 X220.416 Y100.598 E12.7022
G1 X220.416 Y101.931 E12.7577
G1 X142.438 Y101.931 E15.9996
G1 X142.438 Y103.264 E16.0550
G1 X220.416 Y103.264 E19.2970
G1 X220.416 Y104.598 E19.3524
G1 X142.438 Y104.598 E22.5944
G1 X142.438 Y105.931 E22.6498
G1 X220.416 Y105.931 E25.8918
G1 X220.416 Y107.264 E25.9472
G1 X142.438 Y107.264 E29.1891
G1 X142.438 Y108.598 E29.2446
G1 X220.416 Y108.598 E32.4865
G1 X220.416 Y109.931 E32.5420
G1 X142.438 Y109.931 E35.7839
G1 X142.438 Y111.264 E35.8393
G1 X220.416 Y111.264 E39.0813
G1 X220.416 Y112.598 E39.1367
G1 X142.438 Y112.598 E42.3787
G1 X142.438 Y113.931 E42.4341
G1 X220.416 Y113.931 E45.6760
G1 X220.416 Y115.264 E45.7315
G1 X142.438 Y115.264 E48.9734
G1 X142.438 Y116.598 E49.0289
G1 X220.416 Y116.598 E52.2708
G1 X220.416 Y117.931 E52.3262
G1 X142.438 Y117.931 E55.5682
G1 X142.438 Y119.264 E55.6236
G1 X220.416 Y119.264 E58.8656
G1 X220.416 Y120.598 E58.9210
G1 X142.438 Y120.598 E62.1630
G1 X142.438 Y121.931 E62.2184
G1 X220.416 Y121.931 E65.4603
G1 X220.416 Y123.264 E65.5158
G1 X142.438 Y123.264 E68.7577
G1 X142.438 Y124.598 E68.8132
G1 X220.416 Y124.598 E72.0551
G1 X220.416 Y125.931 E72.1105
G1 X142.438 Y125.931 E75.3525
G1 X142.438 Y127.264 E75.4079
G1 X220.416 Y127.264 E78.6499
G1 X220.416 Y128.598 E78.7053
G1 X142.438 Y128.598 E81.9472
G1 X142.438 Y129.931 E82.0027
G1 X220.416 Y129.931 E85.2446
G1 X220.416 Y131.264 E85.3000
G1 X142.438 Y131.264 E88.5420
G1 X142.438 Y132.598 E88.5974
G1 X220.416 Y132.598 E91.8394
G1 X220.416 Y133.931 E91.8948
G1 X142.438 Y133.931 E95.1367
G1 X142.438 Y135.264 E95.1922
G1 X220.416 Y135.264 E98.4341
G1 X220.416 Y136.598 E98.4896
G1 X142.438 Y136.598 E101.7315
G1 X142.438 Y137.931 E101.7869
G1 X220.416 Y137.931 E105.0289
G1 X220.416 Y139.264 E105.0843
G1 X142.438 Y139.264 E108.3263
G1 X142.438 Y140.598 E108.3817
G1 X220.416 Y140.598 E111.6236
G1 X220.416 Y141.931 E111.6791
G1 X142.438 Y141.931 E114.9210
G0 X142.567 Y97.931 F7200
G1 X220.287 Y97.931 E118.1523 F2400
G0 X218.872 Y96.598 F7200
G1 X143.982 Y96.598 E121.2658 F2400
G0 X144.368 Y95.264 F7200
G1 X218.486 Y95.264 E124.3473 F2400
G1 X218.486 Y93.931 E124.4027
G1 X144.368 Y93.931 E127.4842
G1 X144.368 Y92.598 E127.5396
G1 X218.486 Y92.598 E130.6211
G1 X218.486 Y91.264 E130.6765
G1 X144.368 Y91.264 E133.7579
G1 X144.368 Y89.931 E133.8134
G1 X218.486 Y89.931 E136.8948
G1 X218.486 Y88.597 E136.9503
G1 X144.368 Y88.597 E140.0317
G1 X144.368 Y87.264 E140.0871
G1 X218.486 Y87.264 E143.1686
G1 X218.486 Y85.931 E143.2240
G1 X144.368 Y85.931 E146.3055
G1 X144.368 Y84.598 E146.3609
G1 X218.486 Y84.598 E149.4424
G1 X218.486 Y83.264 E149.4978
G1 X144.368 Y83.264 E152.5793
G1 X144.368 Y81.931 E152.6347
G1 X218.486 Y81.931 E155.7161
G1 X218.486 Y80.598 E155.7716
G1 X144.368 Y80.598 E158.8530
G1 X144.368 Y79.264 E158.9085
G1 X218.486 Y79.264 E161.9899
G1 X218.486 Y77.931 E162.0454
G1 X144.368 Y77.931 E165.1268
G1 X144.368 Y76.598 E165.1822
G1 X218.486 Y76.598 E168.2637
G1 X218.486 Y75.264 E168.3191
G1 X144.368 Y75.264 E171.4006
G1 X144.368 Y73.931 E171.4560
G1 X218.486 Y73.931 E174.5375
G1 X218.486 Y72.598 E174.5929
G1 X144.368 Y72.598 E177.6744
G1 X144.368 Y71.264 E177.7298
G1 X218.486 Y71.264 E180.8112
G1 X218.486 Y69.931 E180.8667
G1 X144.368 Y69.931 E183.9481
G1 X144.368 Y68.598 E184.0036
G1 X218.486 Y68.598 E187.0850
G1 X218.486 Y67.264 E187.1404
G1 X144.368 Y67.264 E190.2219
G1 X144.368 Y65.931 E190.2773
G1 X218.486 Y65.931 E193.3588
G1 X218.486 Y64.598 E193.4142
G1 X144.368 Y64.598 E196.4957
G1 X144.368 Y63.264 E196.5511
G1 X218.486 Y63.264 E199.6326
G1 X218.486 Y61.931 E199.6880
G1 X144.368 Y61.931 E202.7694
G1 X144.368 Y60.598 E202.8249
G1 X218.486 Y60.598 E205.9063
G1 X218.486 Y59.264 E205.9618
G1 X144.368 Y59.264 E209.0432
G0 X145.011 Y57.931 F7200
G1 X217.842 Y57.931 E212.0712 F2400
G0 X216.556 Y56.598 F7200
G1 X146.298 Y56.598 E214.9921 F2400



; ------------------------------------
; Raft Layer #2
; ------------------------------------
M106 S0 ;turn off fan
G92 E0 ;reset extr
G0 F600 Z0.700
;segType:Raft
G0 F3000 E-1.0000
G0 F600 Z2.700
G0 X142.562 Y98.217 F7200
G0 F600 Z0.700
G0 F3000 E0.0000
G1 X142.562 Y142.096 E1.8243 F2400
G1 X142.962 Y142.482 E1.8474
G1 X142.962 Y97.702 E3.7091
G1 X143.362 Y97.316 E3.7322
G1 X143.362 Y142.868 E5.6260
G1 X143.762 Y143.254 E5.6491
G1 X143.762 Y96.930 E7.5750
G1 X144.162 Y96.544 E7.5981
G1 X144.162 Y143.640 E9.5561
G1 X144.562 Y144.155 E9.5833
G1 X144.562 Y58.456 E13.1462
G1 X144.962 Y58.070 E13.1693
G1 X144.962 Y144.541 E16.7643
G1 X145.362 Y144.927 E16.7874
G1 X145.362 Y57.684 E20.4146
G1 X145.762 Y57.298 E20.4377
G1 X145.762 Y145.055 E24.0862
G1 X146.162 Y145.055 E24.1028
G1 X146.162 Y56.912 E27.7674
G1 X146.562 Y56.526 E27.7905
G1 X146.562 Y145.055 E31.4711
G1 X146.962 Y145.055 E31.4878
G1 X146.962 Y56.140 E35.1845
G1 X147.362 Y55.882 E35.2042
G1 X147.362 Y145.055 E38.9116
G1 X147.762 Y145.055 E38.9282
G1 X147.762 Y55.882 E42.6356
G1 X148.162 Y55.882 E42.6522
G1 X148.162 Y145.055 E46.3596
G1 X148.562 Y145.055 E46.3762
G1 X148.562 Y55.882 E50.0836
G1 X148.962 Y55.882 E50.1002
G1 X148.962 Y145.055 E53.8076
G1 X149.362 Y145.055 E53.8243
G1 X149.362 Y55.882 E57.5316
G1 X149.762 Y55.882 E57.5483
G1 X149.762 Y145.055 E61.2556
G1 X150.162 Y145.055 E61.2723
G1 X150.162 Y55.882 E64.9796
G1 X150.562 Y55.882 E64.9963
G1 X150.562 Y145.055 E68.7036
G1 X150.962 Y145.055 E68.7203
G1 X150.962 Y55.882 E72.4276
G1 X151.362 Y55.882 E72.4443
G1 X151.362 Y145.055 E76.1517
G1 X151.762 Y145.055 E76.1683
G1 X151.762 Y55.882 E79.8757
G1 X152.162 Y55.882 E79.8923
G1 X152.162 Y145.055 E83.5997
G1 X152.562 Y145.055 E83.6163
G1 X152.562 Y55.882 E87.3237
G1 X152.962 Y55.882 E87.3403
G1 X152.962 Y145.055 E91.0477
G1 X153.362 Y145.055 E91.0643
G1 X153.362 Y55.882 E94.7717
G1 X153.762 Y55.882 E94.7883
G1 X153.762 Y145.055 E98.4957
G1 X154.162 Y145.055 E98.5123
G1 X154.162 Y55.882 E102.2197
G1 X154.562 Y55.882 E102.2363
G1 X154.562 Y145.055 E105.9437
G1 X154.962 Y145.055 E105.9603
G1 X154.962 Y55.882 E109.6677
G1 X155.362 Y55.882 E109.6843
G1 X155.362 Y145.055 E113.3917
G1 X155.762 Y145.055 E113.4084
G1 X155.762 Y55.882 E117.1157
G1 X156.162 Y55.882 E117.1324
G1 X156.162 Y145.055 E120.8397
G1 X156.562 Y145.055 E120.8564
G1 X156.562 Y55.882 E124.5637
G1 X156.962 Y55.882 E124.5804
G1 X156.962 Y145.055 E128.2878
G1 X157.362 Y145.055 E128.3044
G1 X157.362 Y55.882 E132.0118
G1 X157.762 Y55.882 E132.0284
G1 X157.762 Y145.055 E135.7358
G1 X158.162 Y145.055 E135.7524
G1 X158.162 Y55.882 E139.4598
G1 X158.562 Y55.882 E139.4764
G1 X158.562 Y145.055 E143.1838
G1 X158.962 Y145.055 E143.2004
G1 X158.962 Y55.882 E146.9078
G1 X159.362 Y55.882 E146.9244
G1 X159.362 Y145.055 E150.6318
G1 X159.762 Y145.055 E150.6484
G1 X159.762 Y55.882 E154.3557
G1 X160.162 Y55.882 E154.3724
G1 X160.162 Y145.055 E158.0797
G1 X160.562 Y145.055 E158.0964
G1 X160.562 Y55.882 E161.8037
G1 X160.962 Y55.882 E161.8204
G1 X160.962 Y145.055 E165.5277
G1 X161.362 Y145.055 E165.5444
G1 X161.362 Y55.882 E169.2517
G1 X161.762 Y55.882 E169.2684
G1 X161.762 Y145.055 E172.9757
G1 X162.162 Y145.055 E172.9924
G1 X162.162 Y55.882 E176.6997
G1 X162.562 Y55.882 E176.7164
G1 X162.562 Y145.055 E180.4237
G1 X162.962 Y145.055 E180.4404
G1 X162.962 Y55.882 E184.1477
G1 X163.362 Y55.882 E184.1644
G1 X163.362 Y145.055 E187.8717
G1 X163.762 Y145.055 E187.8884
G1 X163.762 Y55.882 E191.5957
G1 X164.162 Y55.882 E191.6124
G1 X164.162 Y145.055 E195.3197
G1 X164.562 Y145.055 E195.3364
G1 X164.562 Y55.882 E199.0437
G1 X164.962 Y55.882 E199.0604
G1 X164.962 Y145.055 E202.7677
G1 X165.362 Y145.055 E202.7844
G1 X165.362 Y55.882 E206.4917
G1 X165.762 Y55.882 E206.5084
G1 X165.762 Y145.055 E210.2157
G1 X166.162 Y145.055 E210.2324
G1 X166.162 Y55.882 E213.9397
G1 X166.562 Y55.882 E213.9564
G1 X166.562 Y145.055 E217.6637
G1 X166.962 Y145.055 E217.6804
G1 X166.962 Y55.882 E221.3877
G1 X167.362 Y55.882 E221.4044
G1 X167.362 Y145.055 E225.1117
G1 X167.762 Y145.055 E225.1284
G1 X167.762 Y55.882 E228.8357
G1 X168.162 Y55.882 E228.8524
G1 X168.162 Y145.055 E232.5597
G1 X168.562 Y145.055 E232.5764
G1 X168.562 Y55.882 E236.2837
G1 X168.962 Y55.882 E236.3004
G1 X168.962 Y145.055 E240.0077
G1 X169.362 Y145.055 E240.0244
G1 X169.362 Y55.882 E243.7317
G1 X169.762 Y55.882 E243.7484
G1 X169.762 Y145.055 E247.4557
G1 X170.162 Y145.055 E247.4724
G1 X170.162 Y55.882 E251.1797
G1 X170.562 Y55.882 E251.1964
G1 X170.562 Y145.055 E254.9037
G1 X170.962 Y145.055 E254.9204
G1 X170.962 Y55.882 E258.6277
G1 X171.362 Y55.882 E258.6444
G1 X171.362 Y145.055 E262.3517
G1 X171.762 Y145.055 E262.3684
G1 X171.762 Y55.882 E266.0757
G1 X172.162 Y55.882 E266.0924
G1 X172.162 Y145.055 E269.7997
G1 X172.562 Y145.055 E269.8164
G1 X172.562 Y55.882 E273.5237
G1 X172.962 Y55.882 E273.5404
G1 X172.962 Y145.055 E277.2477
G1 X173.362 Y145.055 E277.2644
G1 X173.362 Y55.882 E280.9717
G1 X173.762 Y55.882 E280.9884
G1 X173.762 Y145.055 E284.6957
G1 X174.162 Y145.055 E284.7124
G1 X174.162 Y55.882 E288.4197
G1 X174.562 Y55.882 E288.4364
G1 X174.562 Y145.055 E292.1437
G1 X174.962 Y145.055 E292.1604
G1 X174.962 Y55.882 E295.8677
G1 X175.362 Y55.882 E295.8844
G1 X175.362 Y145.055 E299.5917
G1 X175.762 Y145.055 E299.6083
G1 X175.762 Y55.882 E303.3157
G1 X176.162 Y55.882 E303.3323
G1 X176.162 Y145.055 E307.0397
G1 X176.562 Y145.055 E307.0563
G1 X176.562 Y55.882 E310.7637
G1 X176.962 Y55.882 E310.7803
G1 X176.962 Y145.055 E314.4877
G1 X177.362 Y145.055 E314.5043
G1 X177.362 Y55.882 E318.2117
G1 X177.762 Y55.882 E318.2283
G1 X177.762 Y145.055 E321.9357
G1 X178.162 Y145.055 E321.9523
G1 X178.162 Y55.882 E325.6597
G1 X178.562 Y55.882 E325.6763
G1 X178.562 Y145.055 E329.3837
G1 X178.962 Y145.055 E329.4003
G1 X178.962 Y55.882 E333.1077
G1 X179.362 Y55.882 E333.1243
G1 X179.362 Y145.055 E336.8317
G1 X179.762 Y145.055 E336.8483
G1 X179.762 Y55.882 E340.5557
G1 X180.162 Y55.882 E340.5723
G1 X180.162 Y145.055 E344.2797
G1 X180.562 Y145.055 E344.2963
G1 X180.562 Y55.882 E348.0037
G1 X180.962 Y55.882 E348.0203
G1 X180.962 Y145.055 E351.7277
G1 X181.362 Y145.055 E351.7443
G1 X181.362 Y55.882 E355.4517
G1 X181.762 Y55.882 E355.4683
G1 X181.762 Y145.055 E359.1757
G1 X182.162 Y145.055 E359.1923
G1 X182.162 Y55.882 E362.8997
G1 X182.562 Y55.882 E362.9163
G1 X182.562 Y145.055 E366.6237
G1 X182.962 Y145.055 E366.6403
G1 X182.962 Y55.882 E370.3477
G1 X183.362 Y55.882 E370.3643
G1 X183.362 Y145.055 E374.0717
G1 X183.762 Y145.055 E374.0883
G1 X183.762 Y55.882 E377.7957
G1 X184.162 Y55.882 E377.8123
G1 X184.162 Y145.055 E381.5197
G1 X184.562 Y145.055 E381.5363
G1 X184.562 Y55.882 E385.2437
G1 X184.962 Y55.882 E385.2603
G1 X184.962 Y145.055 E388.9677
G1 X185.362 Y145.055 E388.9843
G1 X185.362 Y55.882 E392.6917
G1 X185.762 Y55.882 E392.7083
G1 X185.762 Y145.055 E396.4157
G1 X186.162 Y145.055 E396.4323
G1 X186.162 Y55.882 E400.1397
G1 X186.562 Y55.882 E400.1563
G1 X186.562 Y145.055 E403.8637
G1 X186.962 Y145.055 E403.8803
G1 X186.962 Y55.882 E407.5877
G1 X187.362 Y55.882 E407.6043
G1 X187.362 Y145.055 E411.3117
G1 X187.762 Y145.055 E411.3283
G1 X187.762 Y55.882 E415.0357
G1 X188.162 Y55.882 E415.0523
G1 X188.162 Y145.055 E418.7597
G1 X188.562 Y145.055 E418.7763
G1 X188.562 Y55.882 E422.4837
G1 X188.962 Y55.882 E422.5003
G1 X188.962 Y145.055 E426.2077
G1 X189.362 Y145.055 E426.2243
G1 X189.362 Y55.882 E429.9317
G1 X189.762 Y55.882 E429.9483
G1 X189.762 Y145.055 E433.6557
G1 X190.162 Y145.055 E433.6723
G1 X190.162 Y55.882 E437.3797
G1 X190.562 Y55.882 E437.3963
G1 X190.562 Y145.055 E441.1037
G1 X190.962 Y145.055 E441.1203
G1 X190.962 Y55.882 E444.8277
G1 X191.362 Y55.882 E444.8443
G1 X191.362 Y145.055 E448.5517
G1 X191.762 Y145.055 E448.5683
G1 X191.762 Y55.882 E452.2757
G1 X192.162 Y55.882 E452.2923
G1 X192.162 Y145.055 E455.9997
G1 X192.562 Y145.055 E456.0163
G1 X192.562 Y55.882 E459.7237
G1 X192.962 Y55.882 E459.7403
G1 X192.962 Y145.055 E463.4477
G1 X193.362 Y145.055 E463.4643
G1 X193.362 Y55.882 E467.1717
G1 X193.762 Y55.882 E467.1883
G1 X193.762 Y145.055 E470.8957
G1 X194.162 Y145.055 E470.9123
G1 X194.162 Y55.882 E474.6197
G1 X194.562 Y55.882 E474.6363
G1 X194.562 Y145.055 E478.3437
G1 X194.962 Y145.055 E478.3603
G1 X194.962 Y55.882 E482.0677
G1 X195.362 Y55.882 E482.0843
G1 X195.362 Y145.055 E485.7917
G1 X195.762 Y145.055 E485.8083
G1 X195.762 Y55.882 E489.5157
G1 X196.162 Y55.882 E489.5323
G1 X196.162 Y145.055 E493.2397
G1 X196.562 Y145.055 E493.2563
G1 X196.562 Y55.882 E496.9637
G1 X196.962 Y55.882 E496.9803
G1 X196.962 Y145.055 E500.6877
G1 X197.362 Y145.055 E500.7043
G1 X197.362 Y55.882 E504.4117
G1 X197.762 Y55.882 E504.4283
G1 X197.762 Y145.055 E508.1357
G1 X198.162 Y145.055 E508.1523
G1 X198.162 Y55.882 E511.8597
G1 X198.562 Y55.882 E511.8763
G1 X198.562 Y145.055 E515.5837
G1 X198.962 Y145.055 E515.6003
G1 X198.962 Y55.882 E519.3077
G1 X199.362 Y55.882 E519.3243
G1 X199.362 Y145.055 E523.0317
G1 X199.762 Y145.055 E523.0483
G1 X199.762 Y55.882 E526.7557
G1 X200.162 Y55.882 E526.7723
G1 X200.162 Y145.055 E530.4797
G1 X200.562 Y145.055 E530.4963
G1 X200.562 Y55.882 E534.2037
G1 X200.962 Y55.882 E534.2203
G1 X200.962 Y145.055 E537.9277
G1 X201.362 Y145.055 E537.9443
G1 X201.362 Y55.882 E541.6517
G1 X201.762 Y55.882 E541.6683
G1 X201.762 Y145.055 E545.3757
G1 X202.162 Y145.055 E545.3923
G1 X202.162 Y55.882 E549.0997
G1 X202.562 Y55.882 E549.1163
G1 X202.562 Y145.055 E552.8237
G1 X202.962 Y145.055 E552.8403
G1 X202.962 Y55.882 E556.5477
G1 X203.362 Y55.882 E556.5643
G1 X203.362 Y145.055 E560.2717
G1 X203.762 Y145.055 E560.2883
G1 X203.762 Y55.882 E563.9957
G1 X204.162 Y55.882 E564.0123
G1 X204.162 Y145.055 E567.7197
G1 X204.562 Y145.055 E567.7363
G1 X204.562 Y55.882 E571.4437
G1 X204.962 Y55.882 E571.4603
G1 X204.962 Y145.055 E575.1677
G1 X205.362 Y145.055 E575.1843
G1 X205.362 Y55.882 E578.8917
G1 X205.762 Y55.882 E578.9083
G1 X205.762 Y145.055 E582.6157
G1 X206.162 Y145.055 E582.6323
G1 X206.162 Y55.882 E586.3397
G1 X206.562 Y55.882 E586.3563
G1 X206.562 Y145.055 E590.0637
G1 X206.962 Y145.055 E590.0803
G1 X206.962 Y55.882 E593.7877
G1 X207.362 Y55.882 E593.8043
G1 X207.362 Y145.055 E597.5117
G1 X207.762 Y145.055 E597.5283
G1 X207.762 Y55.882 E601.2357
G1 X208.162 Y55.882 E601.2523
G1 X208.162 Y145.055 E604.9597
G1 X208.562 Y145.055 E604.9763
G1 X208.562 Y55.882 E608.6837
G1 X208.962 Y55.882 E608.7003
G1 X208.962 Y145.055 E612.4077
G1 X209.362 Y145.055 E612.4243
G1 X209.362 Y55.882 E616.1317
G1 X209.762 Y55.882 E616.1483
G1 X209.762 Y145.055 E619.8557
G1 X210.162 Y145.055 E619.8723
G1 X210.162 Y55.882 E623.5797
G1 X210.562 Y55.882 E623.5963
G1 X210.562 Y145.055 E627.3037
G1 X210.962 Y145.055 E627.3203
G1 X210.962 Y55.882 E631.0277
G1 X211.362 Y55.882 E631.0443
G1 X211.362 Y145.055 E634.7517
G1 X211.762 Y145.055 E634.7683
G1 X211.762 Y55.882 E638.4757
G1 X212.162 Y55.882 E638.4923
G1 X212.162 Y145.055 E642.1997
G1 X212.562 Y145.055 E642.2163
G1 X212.562 Y55.882 E645.9237
G1 X212.962 Y55.882 E645.9403
G1 X212.962 Y145.055 E649.6477
G1 X213.362 Y145.055 E649.6643
G1 X213.362 Y55.882 E653.3717
G1 X213.762 Y55.882 E653.3883
G1 X213.762 Y145.055 E657.0957
G1 X214.162 Y145.055 E657.1123
G1 X214.162 Y55.882 E660.8197
G1 X214.562 Y55.882 E660.8363
G1 X214.562 Y145.055 E664.5437
G1 X214.962 Y145.055 E664.5603
G1 X214.962 Y55.882 E668.2677
G1 X215.362 Y55.882 E668.2843
G1 X215.362 Y145.055 E671.9917
G1 X215.762 Y145.055 E672.0083
G1 X215.762 Y55.882 E675.7157
G1 X216.162 Y56.268 E675.7388
G1 X216.162 Y145.055 E679.4301
G1 X216.562 Y145.055 E679.4467
G1 X216.562 Y56.655 E683.1220
G1 X216.962 Y57.041 E683.1452
G1 X216.962 Y145.055 E686.8044
G1 X217.362 Y145.055 E686.8210
G1 X217.362 Y57.427 E690.4642
G1 X217.762 Y57.813 E690.4873
G1 X217.762 Y144.798 E694.1038
G1 X218.162 Y144.412 E694.1269
G1 X218.162 Y58.199 E697.7113
G0 X218.562 Y96.287 F7200
G1 X218.562 Y143.897 E699.6907 F2400
G1 X218.962 Y143.511 E699.7138
G1 X218.962 Y96.673 E701.6612
G1 X219.362 Y97.059 E701.6843
G1 X219.362 Y143.125 E703.5995
G1 X219.762 Y142.739 E703.6226
G1 X219.762 Y97.445 E705.5058
G1 X220.162 Y97.831 E705.5289
G1 X220.162 Y142.353 E707.3799



; ------------------------------------
; Raft Layer #3
; ------------------------------------
M106 S255 ;set fan speed
G92 E0 ;reset extr
G0 F600 Z1.000
;segType:Raft
G0 F3000 E-1.0000
G0 F600 Z3.000
G0 X145.011 Y144.598 F7200
G0 F600 Z1.000
G0 F3000 E0.0000
G1 X217.842 Y144.598 E3.0280 F2400
G1 X218.228 Y144.198 E3.0511
G1 X144.625 Y144.198 E6.1111
G1 X144.239 Y143.798 E6.1342
G1 X218.614 Y143.798 E9.2264
G1 X219.000 Y143.398 E9.2495
G1 X143.853 Y143.398 E12.3738
G1 X143.467 Y142.998 E12.3969
G1 X219.386 Y142.998 E15.5532
G1 X219.772 Y142.598 E15.5763
G1 X143.081 Y142.598 E18.7648
G1 X142.695 Y142.198 E18.7879
G1 X220.158 Y142.198 E22.0084
G1 X220.416 Y141.798 E22.0282
G1 X142.438 Y141.798 E25.2702
G1 X142.438 Y141.398 E25.2868
G1 X220.416 Y141.398 E28.5287
G1 X220.416 Y140.998 E28.5454
G1 X142.438 Y140.998 E31.7873
G1 X142.438 Y140.598 E31.8039
G1 X220.416 Y140.598 E35.0459
G1 X220.416 Y140.198 E35.0625
G1 X142.438 Y140.198 E38.3045
G1 X142.438 Y139.798 E38.3211
G1 X220.416 Y139.798 E41.5630
G1 X220.416 Y139.398 E41.5797
G1 X142.438 Y139.398 E44.8216
G1 X142.438 Y138.998 E44.8383
G1 X220.416 Y138.998 E48.0802
G1 X220.416 Y138.598 E48.0968
G1 X142.438 Y138.598 E51.3388
G1 X142.438 Y138.198 E51.3554
G1 X220.416 Y138.198 E54.5974
G1 X220.416 Y137.798 E54.6140
G1 X142.438 Y137.798 E57.8559
G1 X142.438 Y137.398 E57.8726
G1 X220.416 Y137.398 E61.1145
G1 X220.416 Y136.998 E61.1311
G1 X142.438 Y136.998 E64.3731
G1 X142.438 Y136.598 E64.3897
G1 X220.416 Y136.598 E67.6317
G1 X220.416 Y136.198 E67.6483
G1 X142.438 Y136.198 E70.8902
G1 X142.438 Y135.798 E70.9069
G1 X220.416 Y135.798 E74.1488
G1 X220.416 Y135.398 E74.1654
G1 X142.438 Y135.398 E77.4074
G1 X142.438 Y134.998 E77.4240
G1 X220.416 Y134.998 E80.6660
G1 X220.416 Y134.598 E80.6826
G1 X142.438 Y134.598 E83.9245
G1 X142.438 Y134.198 E83.9412
G1 X220.416 Y134.198 E87.1831
G1 X220.416 Y133.798 E87.1997
G1 X142.438 Y133.798 E90.4417
G1 X142.438 Y133.398 E90.4583
G1 X220.416 Y133.398 E93.7003
G1 X220.416 Y132.998 E93.7169
G1 X142.438 Y132.998 E96.9588
G1 X142.438 Y132.598 E96.9755
G1 X220.416 Y132.598 E100.2174
G1 X220.416 Y132.198 E100.2340
G1 X142.438 Y132.198 E103.4760
G1 X142.438 Y131.798 E103.4926
G1 X220.416 Y131.798 E106.7346
G1 X220.416 Y131.398 E106.7512
G1 X142.438 Y131.398 E109.9931
G1 X142.438 Y130.998 E110.0098
G1 X220.416 Y130.998 E113.2517
G1 X220.416 Y130.598 E113.2683
G1 X142.438 Y130.598 E116.5103
G1 X142.438 Y130.198 E116.5269
G1 X220.416 Y130.198 E119.7689
G1 X220.416 Y129.798 E119.7855
G1 X142.438 Y129.798 E123.0274
G1 X142.438 Y129.398 E123.0441
G1 X220.416 Y129.398 E126.2860
G1 X220.416 Y128.998 E126.3026
G1 X142.438 Y128.998 E129.5446
G1 X142.438 Y128.598 E129.5612
G1 X220.416 Y128.598 E132.8032
G1 X220.416 Y128.198 E132.8198
G1 X142.438 Y128.198 E136.0617
G1 X142.438 Y127.798 E136.0784
G1 X220.416 Y127.798 E139.3203
G1 X220.416 Y127.398 E139.3370
G1 X142.438 Y127.398 E142.5789
G1 X142.438 Y126.998 E142.5955
G1 X220.416 Y126.998 E145.8375
G1 X220.416 Y126.598 E145.8541
G1 X142.438 Y126.598 E149.0960
G1 X142.438 Y126.198 E149.1127
G1 X220.416 Y126.198 E152.3546
G1 X220.416 Y125.798 E152.3713
G1 X142.438 Y125.798 E155.6132
G1 X142.438 Y125.398 E155.6298
G1 X220.416 Y125.398 E158.8718
G1 X220.416 Y124.998 E158.8884
G1 X142.438 Y124.998 E162.1303
G1 X142.438 Y124.598 E162.1470
G1 X220.416 Y124.598 E165.3889
G1 X220.416 Y124.198 E165.4056
G1 X142.438 Y124.198 E168.6475
G1 X142.438 Y123.798 E168.6641
G1 X220.416 Y123.798 E171.9061
G1 X220.416 Y123.398 E171.9227
G1 X142.438 Y123.398 E175.1646
G1 X142.438 Y122.998 E175.1813
G1 X220.416 Y122.998 E178.4232
G1 X220.416 Y122.598 E178.4399
G1 X142.438 Y122.598 E181.6818
G1 X142.438 Y122.198 E181.6984
G1 X220.416 Y122.198 E184.9404
G1 X220.416 Y121.798 E184.9570
G1 X142.438 Y121.798 E188.1990
G1 X142.438 Y121.398 E188.2156
G1 X220.416 Y121.398 E191.4575
G1 X220.416 Y120.998 E191.4742
G1 X142.438 Y120.998 E194.7161
G1 X142.438 Y120.598 E194.7327
G1 X220.416 Y120.598 E197.9747
G1 X220.416 Y120.198 E197.9913
G1 X142.438 Y120.198 E201.2333
G1 X142.438 Y119.798 E201.2499
G1 X220.416 Y119.798 E204.4918
G1 X220.416 Y119.398 E204.5085
G1 X142.438 Y119.398 E207.7504
G1 X142.438 Y118.998 E207.7670
G1 X220.416 Y118.998 E211.0090
G1 X220.416 Y118.598 E211.0256
G1 X142.438 Y118.598 E214.2676
G1 X142.438 Y118.198 E214.2842
G1 X220.416 Y118.198 E217.5261
G1 X220.416 Y117.798 E217.5428
G1 X142.438 Y117.798 E220.7847
G1 X142.438 Y117.398 E220.8013
G1 X220.416 Y117.398 E224.0433
G1 X220.416 Y116.998 E224.0599
G1 X142.438 Y116.998 E227.3019
G1 X142.438 Y116.598 E227.3185
G1 X220.416 Y116.598 E230.5604
G1 X220.416 Y116.198 E230.5771
G1 X142.438 Y116.198 E233.8190
G1 X142.438 Y115.798 E233.8356
G1 X220.416 Y115.798 E237.0776
G1 X220.416 Y115.398 E237.0942
G1 X142.438 Y115.398 E240.3362
G1 X142.438 Y114.998 E240.3528
G1 X220.416 Y114.998 E243.5947
G1 X220.416 Y114.598 E243.6114
G1 X142.438 Y114.598 E246.8533
G1 X142.438 Y114.198 E246.8699
G1 X220.416 Y114.198 E250.1119
G1 X220.416 Y113.798 E250.1285
G1 X142.438 Y113.798 E253.3705
G1 X142.438 Y113.398 E253.3871
G1 X220.416 Y113.398 E256.6290
G1 X220.416 Y112.998 E256.6457
G1 X142.438 Y112.998 E259.8876
G1 X142.438 Y112.598 E259.9042
G1 X220.416 Y112.598 E263.1462
G1 X220.416 Y112.198 E263.1628
G1 X142.438 Y112.198 E266.4048
G1 X142.438 Y111.798 E266.4214
G1 X220.416 Y111.798 E269.6633
G1 X220.416 Y111.398 E269.6800
G1 X142.438 Y111.398 E272.9219
G1 X142.438 Y110.998 E272.9386
G1 X220.416 Y110.998 E276.1805
G1 X220.416 Y110.598 E276.1971
G1 X142.438 Y110.598 E279.4391
G1 X142.438 Y110.197 E279.4557
G1 X220.416 Y110.197 E282.6976
G1 X220.416 Y109.798 E282.7143
G1 X142.438 Y109.798 E285.9562
G1 X142.438 Y109.397 E285.9729
G1 X220.416 Y109.397 E289.2148
G1 X220.416 Y108.998 E289.2314
G1 X142.438 Y108.998 E292.4734
G1 X142.438 Y108.597 E292.4900
G1 X220.416 Y108.597 E295.7319
G1 X220.416 Y108.197 E295.7486
G1 X142.438 Y108.197 E298.9905
G1 X142.438 Y107.797 E299.0072
G1 X220.416 Y107.797 E302.2491
G1 X220.416 Y107.397 E302.2657
G1 X142.438 Y107.397 E305.5077
G1 X142.438 Y106.997 E305.5243
G1 X220.416 Y106.997 E308.7662
G1 X220.416 Y106.597 E308.7829
G1 X142.438 Y106.597 E312.0248
G1 X142.438 Y106.197 E312.0415
G1 X220.416 Y106.197 E315.2834
G1 X220.416 Y105.797 E315.3000
G1 X142.438 Y105.797 E318.5420
G1 X142.438 Y105.397 E318.5586
G1 X220.416 Y105.397 E321.8005
G1 X220.416 Y104.997 E321.8172
G1 X142.438 Y104.997 E325.0591
G1 X142.438 Y104.597 E325.0758
G1 X220.416 Y104.597 E328.3177
G1 X220.416 Y104.197 E328.3343
G1 X142.438 Y104.197 E331.5763
G1 X142.438 Y103.797 E331.5929
G1 X220.416 Y103.797 E334.8349
G1 X220.416 Y103.397 E334.8515
G1 X142.438 Y103.397 E338.0934
G1 X142.438 Y102.997 E338.1101
G1 X220.416 Y102.997 E341.3520
G1 X220.416 Y102.597 E341.3686
G1 X142.438 Y102.597 E344.6106
G1 X142.438 Y102.197 E344.6272
G1 X220.416 Y102.197 E347.8692
G1 X220.416 Y101.797 E347.8858
G1 X142.438 Y101.797 E351.1277
G1 X142.438 Y101.397 E351.1444
G1 X220.416 Y101.397 E354.3863
G1 X220.416 Y100.997 E354.4029
G1 X142.438 Y100.997 E357.6449
G1 X142.438 Y100.597 E357.6615
G1 X220.416 Y100.597 E360.9035
G1 X220.416 Y100.197 E360.9201
G1 X142.438 Y100.197 E364.1620
G1 X142.438 Y99.797 E364.1787
G1 X220.416 Y99.797 E367.4206
G1 X220.416 Y99.397 E367.4372
G1 X142.438 Y99.397 E370.6792
G1 X142.438 Y98.997 E370.6958
G1 X220.416 Y98.997 E373.9378
G1 X220.416 Y98.597 E373.9544
G1 X142.438 Y98.597 E377.1963
G1 X142.438 Y98.197 E377.2130
G1 X220.416 Y98.197 E380.4549
G1 X220.158 Y97.797 E380.4747
G1 X142.695 Y97.797 E383.6952
G1 X143.081 Y97.397 E383.7183
G1 X219.772 Y97.397 E386.9068
G1 X219.386 Y96.997 E386.9299
G1 X143.467 Y96.997 E390.0862
G1 X143.982 Y96.597 E390.1133
G1 X218.872 Y96.597 E393.2269
G1 X218.486 Y96.197 E393.2500
G1 X144.368 Y96.197 E396.3314
G1 X144.368 Y95.797 E396.3481
G1 X218.486 Y95.797 E399.4295
G1 X218.486 Y95.397 E399.4461
G1 X144.368 Y95.397 E402.5276
G1 X144.368 Y94.997 E402.5442
G1 X218.486 Y94.997 E405.6257
G1 X218.486 Y94.597 E405.6423
G1 X144.368 Y94.597 E408.7238
G1 X144.368 Y94.197 E408.7404
G1 X218.486 Y94.197 E411.8219
G1 X218.486 Y93.797 E411.8385
G1 X144.368 Y93.797 E414.9199
G1 X144.368 Y93.397 E414.9366
G1 X218.486 Y93.397 E418.0180
G1 X218.486 Y92.997 E418.0346
G1 X144.368 Y92.997 E421.1161
G1 X144.368 Y92.597 E421.1327
G1 X218.486 Y92.597 E424.2142
G1 X218.486 Y92.197 E424.2308
G1 X144.368 Y92.197 E427.3123
G1 X144.368 Y91.797 E427.3289
G1 X218.486 Y91.797 E430.4104
G1 X218.486 Y91.397 E430.4270
G1 X144.368 Y91.397 E433.5084
G1 X144.368 Y90.997 E433.5251
G1 X218.486 Y90.997 E436.6065
G1 X218.486 Y90.597 E436.6232
G1 X144.368 Y90.597 E439.7046
G1 X144.368 Y90.197 E439.7212
G1 X218.486 Y90.197 E442.8027
G1 X218.486 Y89.797 E442.8193
G1 X144.368 Y89.797 E445.9008
G1 X144.368 Y89.397 E445.9174
G1 X218.486 Y89.397 E448.9989
G1 X218.486 Y88.997 E449.0155
G1 X144.368 Y88.997 E452.0969
G1 X144.368 Y88.597 E452.1136
G1 X218.486 Y88.597 E455.1950
G1 X218.486 Y88.197 E455.2117
G1 X144.368 Y88.197 E458.2931
G1 X144.368 Y87.797 E458.3097
G1 X218.486 Y87.797 E461.3912
G1 X218.486 Y87.397 E461.4078
G1 X144.368 Y87.397 E464.4893
G1 X144.368 Y86.997 E464.5059
G1 X218.486 Y86.997 E467.5874
G1 X218.486 Y86.597 E467.6040
G1 X144.368 Y86.597 E470.6854
G1 X144.368 Y86.197 E470.7021
G1 X218.486 Y86.197 E473.7835
G1 X218.486 Y85.797 E473.8002
G1 X144.368 Y85.797 E476.8816
G1 X144.368 Y85.397 E476.8982
G1 X218.486 Y85.397 E479.9797
G1 X218.486 Y84.997 E479.9963
G1 X144.368 Y84.997 E483.0778
G1 X144.368 Y84.597 E483.0944
G1 X218.486 Y84.597 E486.1759
G1 X218.486 Y84.197 E486.1925
G1 X144.368 Y84.197 E489.2740
G1 X144.368 Y83.797 E489.2906
G1 X218.486 Y83.797 E492.3720
G1 X218.486 Y83.397 E492.3887
G1 X144.368 Y83.397 E495.4701
G1 X144.368 Y82.997 E495.4867
G1 X218.486 Y82.997 E498.5682
G1 X218.486 Y82.597 E498.5848
G1 X144.368 Y82.597 E501.6663
G1 X144.368 Y82.197 E501.6829
G1 X218.486 Y82.197 E504.7644
G1 X218.486 Y81.797 E504.7810
G1 X144.368 Y81.797 E507.8625
G1 X144.368 Y81.397 E507.8791
G1 X218.486 Y81.397 E510.9605
G1 X218.486 Y80.997 E510.9772
G1 X144.368 Y80.997 E514.0586
G1 X144.368 Y80.597 E514.0752
G1 X218.486 Y80.597 E517.1567
G1 X218.486 Y80.197 E517.1733
G1 X144.368 Y80.197 E520.2548
G1 X144.368 Y79.797 E520.2714
G1 X218.486 Y79.797 E523.3529
G1 X218.486 Y79.397 E523.3695
G1 X144.368 Y79.397 E526.4510
G1 X144.368 Y78.997 E526.4676
G1 X218.486 Y78.997 E529.5490
G1 X218.486 Y78.597 E529.5656
G1 X144.368 Y78.597 E532.6471
G1 X144.368 Y78.197 E532.6637
G1 X218.486 Y78.197 E535.7452
G1 X218.486 Y77.797 E535.7618
G1 X144.368 Y77.797 E538.8433
G1 X144.368 Y77.397 E538.8599
G1 X218.486 Y77.397 E541.9414
G1 X218.486 Y76.997 E541.9580
G1 X144.368 Y76.997 E545.0395
G1 X144.368 Y76.597 E545.0561
G1 X218.486 Y76.597 E548.1375
G1 X218.486 Y76.197 E548.1541
G1 X144.368 Y76.197 E551.2356
G1 X144.368 Y75.797 E551.2522
G1 X218.486 Y75.797 E554.3337
G1 X218.486 Y75.397 E554.3503
G1 X144.368 Y75.397 E557.4318
G1 X144.368 Y74.997 E557.4484
G1 X218.486 Y74.997 E560.5299
G1 X218.486 Y74.597 E560.5465
G1 X144.368 Y74.597 E563.6280
G1 X144.368 Y74.197 E563.6446
G1 X218.486 Y74.197 E566.7260
G1 X218.486 Y73.797 E566.7426
G1 X144.368 Y73.797 E569.8241
G1 X144.368 Y73.397 E569.8407
G1 X218.486 Y73.397 E572.9222
G1 X218.486 Y72.997 E572.9388
G1 X144.368 Y72.997 E576.0203
G1 X144.368 Y72.597 E576.0369
G1 X218.486 Y72.597 E579.1184
G1 X218.486 Y72.197 E579.1350
G1 X144.368 Y72.197 E582.2165
G1 X144.368 Y71.797 E582.2331
G1 X218.486 Y71.797 E585.3145
G1 X218.486 Y71.397 E585.3311
G1 X144.368 Y71.397 E588.4126
G1 X144.368 Y70.997 E588.4292
G1 X218.486 Y70.997 E591.5107
G1 X218.486 Y70.597 E591.5273
G1 X144.368 Y70.597 E594.6088
G1 X144.368 Y70.197 E594.6254
G1 X218.486 Y70.197 E597.7069
G1 X218.486 Y69.797 E597.7235
G1 X144.368 Y69.797 E600.8050
G1 X144.368 Y69.397 E600.8216
G1 X218.486 Y69.397 E603.9030
G1 X218.486 Y68.997 E603.9196
G1 X144.368 Y68.997 E607.0011
G1 X144.368 Y68.597 E607.0177
G1 X218.486 Y68.597 E610.0992
G1 X218.486 Y68.197 E610.1158
G1 X144.368 Y68.197 E613.1973
G1 X144.368 Y67.797 E613.2139
G1 X218.486 Y67.797 E616.2954
G1 X218.486 Y67.397 E616.3120
G1 X144.368 Y67.397 E619.3935
G1 X144.368 Y66.997 E619.4101
G1 X218.486 Y66.997 E622.4915
G1 X218.486 Y66.597 E622.5081
G1 X144.368 Y66.597 E625.5896
G1 X144.368 Y66.197 E625.6062
G1 X218.486 Y66.197 E628.6877
G1 X218.486 Y65.797 E628.7043
G1 X144.368 Y65.797 E631.7858
G1 X144.368 Y65.397 E631.8024
G1 X218.486 Y65.397 E634.8839
G1 X218.486 Y64.997 E634.9005
G1 X144.368 Y64.997 E637.9820
G1 X144.368 Y64.597 E637.9986
G1 X218.486 Y64.597 E641.0800
G1 X218.486 Y64.197 E641.0966
G1 X144.368 Y64.197 E644.1781
G1 X144.368 Y63.797 E644.1947
G1 X218.486 Y63.797 E647.2762
G1 X218.486 Y63.397 E647.2928
G1 X144.368 Y63.397 E650.3743
G1 X144.368 Y62.997 E650.3909
G1 X218.486 Y62.997 E653.4724
G1 X218.486 Y62.597 E653.4890
G1 X144.368 Y62.597 E656.5705
G1 X144.368 Y62.197 E656.5871
G1 X218.486 Y62.197 E659.6685
G1 X218.486 Y61.797 E659.6851
G1 X144.368 Y61.797 E662.7666
G1 X144.368 Y61.397 E662.7832
G1 X218.486 Y61.397 E665.8647
G1 X218.486 Y60.997 E665.8813
G1 X144.368 Y60.997 E668.9628
G1 X144.368 Y60.597 E668.9794
G1 X218.486 Y60.597 E672.0609
G1 X218.486 Y60.197 E672.0775
G1 X144.368 Y60.197 E675.1590
G1 X144.368 Y59.797 E675.1756
G1 X218.486 Y59.797 E678.2570
G1 X218.486 Y59.397 E678.2736
G1 X144.368 Y59.397 E681.3551
G1 X144.368 Y58.997 E681.3717
G1 X218.486 Y58.997 E684.4532
G1 X218.486 Y58.597 E684.4698
G1 X144.368 Y58.597 E687.5513
G1 X144.754 Y58.197 E687.5744
G1 X218.100 Y58.197 E690.6238
G1 X217.714 Y57.797 E690.6469
G1 X145.140 Y57.797 E693.6642
G1 X145.526 Y57.397 E693.6873
G1 X217.328 Y57.397 E696.6725
G1 X216.942 Y56.997 E696.6956
G1 X145.912 Y56.997 E699.6487
G1 X146.298 Y56.597 E699.6718
G1 X216.556 Y56.597 E702.5928
G1 X216.041 Y56.197 E702.6199
G1 X146.813 Y56.197 E705.4981



; ------------------------------------
; Raft Layer #4
; ------------------------------------
G92 E0 ;reset extr
G0 F600 Z1.200
;segType:Raft
G0 F3000 E-1.0000
G0 F600 Z3.200
G0 X142.562 Y98.217 F7200
G0 F600 Z1.200
G0 F3000 E0.0000
G1 X142.562 Y142.096 E1.8243 F2400
G1 X142.962 Y142.482 E1.8474
G1 X142.962 Y97.702 E3.7091
G1 X143.362 Y97.316 E3.7322
G1 X143.362 Y142.868 E5.6260
G1 X143.762 Y143.254 E5.6491
G1 X143.762 Y96.930 E7.5750
G1 X144.162 Y96.544 E7.5981
G1 X144.162 Y143.640 E9.5561
G1 X144.562 Y144.155 E9.5833
G1 X144.562 Y58.456 E13.1462
G1 X144.962 Y58.070 E13.1693
G1 X144.962 Y144.541 E16.7643
G1 X145.362 Y144.927 E16.7874
G1 X145.362 Y57.684 E20.4146
G1 X145.762 Y57.298 E20.4377
G1 X145.762 Y145.055 E24.0862
G1 X146.162 Y145.055 E24.1028
G1 X146.162 Y56.912 E27.7674
G1 X146.562 Y56.526 E27.7905
G1 X146.562 Y145.055 E31.4711
G1 X146.962 Y145.055 E31.4878
G1 X146.962 Y56.140 E35.1845
G1 X147.362 Y55.882 E35.2042
G1 X147.362 Y145.055 E38.9116
G1 X147.762 Y145.055 E38.9282
G1 X147.762 Y55.882 E42.6356
G1 X148.162 Y55.882 E42.6522
G1 X148.162 Y145.055 E46.3596
G1 X148.562 Y145.055 E46.3762
G1 X148.562 Y55.882 E50.0836
G1 X148.962 Y55.882 E50.1002
G1 X148.962 Y145.055 E53.8076
G1 X149.362 Y145.055 E53.8243
G1 X149.362 Y55.882 E57.5316
G1 X149.762 Y55.882 E57.5483
G1 X149.762 Y145.055 E61.2556
G1 X150.162 Y145.055 E61.2723
G1 X150.162 Y55.882 E64.9796
G1 X150.562 Y55.882 E64.9963
G1 X150.562 Y145.055 E68.7036
G1 X150.962 Y145.055 E68.7203
G1 X150.962 Y55.882 E72.4276
G1 X151.362 Y55.882 E72.4443
G1 X151.362 Y145.055 E76.1517
G1 X151.762 Y145.055 E76.1683
G1 X151.762 Y55.882 E79.8757
G1 X152.162 Y55.882 E79.8923
G1 X152.162 Y145.055 E83.5997
G1 X152.562 Y145.055 E83.6163
G1 X152.562 Y55.882 E87.3237
G1 X152.962 Y55.882 E87.3403
G1 X152.962 Y145.055 E91.0477
G1 X153.362 Y145.055 E91.0643
G1 X153.362 Y55.882 E94.7717
G1 X153.762 Y55.882 E94.7883
G1 X153.762 Y145.055 E98.4957
G1 X154.162 Y145.055 E98.5123
G1 X154.162 Y55.882 E102.2197
G1 X154.562 Y55.882 E102.2363
G1 X154.562 Y145.055 E105.9437
G1 X154.962 Y145.055 E105.9603
G1 X154.962 Y55.882 E109.6677
G1 X155.362 Y55.882 E109.6843
G1 X155.362 Y145.055 E113.3917
G1 X155.762 Y145.055 E113.4084
G1 X155.762 Y55.882 E117.1157
G1 X156.162 Y55.882 E117.1324
G1 X156.162 Y145.055 E120.8397
G1 X156.562 Y145.055 E120.8564
G1 X156.562 Y55.882 E124.5637
G1 X156.962 Y55.882 E124.5804
G1 X156.962 Y145.055 E128.2878
G1 X157.362 Y145.055 E128.3044
G1 X157.362 Y55.882 E132.0118
G1 X157.762 Y55.882 E132.0284
G1 X157.762 Y145.055 E135.7358
G1 X158.162 Y145.055 E135.7524
G1 X158.162 Y55.882 E139.4598
G1 X158.562 Y55.882 E139.4764
G1 X158.562 Y145.055 E143.1838
G1 X158.962 Y145.055 E143.2004
G1 X158.962 Y55.882 E146.9078
G1 X159.362 Y55.882 E146.9244
G1 X159.362 Y145.055 E150.6318
G1 X159.762 Y145.055 E150.6484
G1 X159.762 Y55.882 E154.3557
G1 X160.162 Y55.882 E154.3724
G1 X160.162 Y145.055 E158.0797
G1 X160.562 Y145.055 E158.0964
G1 X160.562 Y55.882 E161.8037
G1 X160.962 Y55.882 E161.8204
G1 X160.962 Y145.055 E165.5277
G1 X161.362 Y145.055 E165.5444
G1 X161.362 Y55.882 E169.2517
G1 X161.762 Y55.882 E169.2684
G1 X161.762 Y145.055 E172.9757
G1 X162.162 Y145.055 E172.9924
G1 X162.162 Y55.882 E176.6997
G1 X162.562 Y55.882 E176.7164
G1 X162.562 Y145.055 E180.4237
G1 X162.962 Y145.055 E180.4404
G1 X162.962 Y55.882 E184.1477
G1 X163.362 Y55.882 E184.1644
G1 X163.362 Y145.055 E187.8717
G1 X163.762 Y145.055 E187.8884
G1 X163.762 Y55.882 E191.5957
G1 X164.162 Y55.882 E191.6124
G1 X164.162 Y145.055 E195.3197
G1 X164.562 Y145.055 E195.3364
G1 X164.562 Y55.882 E199.0437
G1 X164.962 Y55.882 E199.0604
G1 X164.962 Y145.055 E202.7677
G1 X165.362 Y145.055 E202.7844
G1 X165.362 Y55.882 E206.4917
G1 X165.762 Y55.882 E206.5084
G1 X165.762 Y145.055 E210.2157
G1 X166.162 Y145.055 E210.2324
G1 X166.162 Y55.882 E213.9397
G1 X166.562 Y55.882 E213.9564
G1 X166.562 Y145.055 E217.6637
G1 X166.962 Y145.055 E217.6804
G1 X166.962 Y55.882 E221.3877
G1 X167.362 Y55.882 E221.4044
G1 X167.362 Y145.055 E225.1117
G1 X167.762 Y145.055 E225.1284
G1 X167.762 Y55.882 E228.8357
G1 X168.162 Y55.882 E228.8524
G1 X168.162 Y145.055 E232.5597
G1 X168.562 Y145.055 E232.5764
G1 X168.562 Y55.882 E236.2837
G1 X168.962 Y55.882 E236.3004
G1 X168.962 Y145.055 E240.0077
G1 X169.362 Y145.055 E240.0244
G1 X169.362 Y55.882 E243.7317
G1 X169.762 Y55.882 E243.7484
G1 X169.762 Y145.055 E247.4557
G1 X170.162 Y145.055 E247.4724
G1 X170.162 Y55.882 E251.1797
G1 X170.562 Y55.882 E251.1964
G1 X170.562 Y145.055 E254.9037
G1 X170.962 Y145.055 E254.9204
G1 X170.962 Y55.882 E258.6277
G1 X171.362 Y55.882 E258.6444
G1 X171.362 Y145.055 E262.3517
G1 X171.762 Y145.055 E262.3684
G1 X171.762 Y55.882 E266.0757
G1 X172.162 Y55.882 E266.0924
G1 X172.162 Y145.055 E269.7997
G1 X172.562 Y145.055 E269.8164
G1 X172.562 Y55.882 E273.5237
G1 X172.962 Y55.882 E273.5404
G1 X172.962 Y145.055 E277.2477
G1 X173.362 Y145.055 E277.2644
G1 X173.362 Y55.882 E280.9717
G1 X173.762 Y55.882 E280.9884
G1 X173.762 Y145.055 E284.6957
G1 X174.162 Y145.055 E284.7124
G1 X174.162 Y55.882 E288.4197
G1 X174.562 Y55.882 E288.4364
G1 X174.562 Y145.055 E292.1437
G1 X174.962 Y145.055 E292.1604
G1 X174.962 Y55.882 E295.8677
G1 X175.362 Y55.882 E295.8844
G1 X175.362 Y145.055 E299.5917
G1 X175.762 Y145.055 E299.6083
G1 X175.762 Y55.882 E303.3157
G1 X176.162 Y55.882 E303.3323
G1 X176.162 Y145.055 E307.0397
G1 X176.562 Y145.055 E307.0563
G1 X176.562 Y55.882 E310.7637
G1 X176.962 Y55.882 E310.7803
G1 X176.962 Y145.055 E314.4877
G1 X177.362 Y145.055 E314.5043
G1 X177.362 Y55.882 E318.2117
G1 X177.762 Y55.882 E318.2283
G1 X177.762 Y145.055 E321.9357
G1 X178.162 Y145.055 E321.9523
G1 X178.162 Y55.882 E325.6597
G1 X178.562 Y55.882 E325.6763
G1 X178.562 Y145.055 E329.3837
G1 X178.962 Y145.055 E329.4003
G1 X178.962 Y55.882 E333.1077
G1 X179.362 Y55.882 E333.1243
G1 X179.362 Y145.055 E336.8317
G1 X179.762 Y145.055 E336.8483
G1 X179.762 Y55.882 E340.5557
G1 X180.162 Y55.882 E340.5723
G1 X180.162 Y145.055 E344.2797
G1 X180.562 Y145.055 E344.2963
G1 X180.562 Y55.882 E348.0037
G1 X180.962 Y55.882 E348.0203
G1 X180.962 Y145.055 E351.7277
G1 X181.362 Y145.055 E351.7443
G1 X181.362 Y55.882 E355.4517
G1 X181.762 Y55.882 E355.4683
G1 X181.762 Y145.055 E359.1757
G1 X182.162 Y145.055 E359.1923
G1 X182.162 Y55.882 E362.8997
G1 X182.562 Y55.882 E362.9163
G1 X182.562 Y145.055 E366.6237
G1 X182.962 Y145.055 E366.6403
G1 X182.962 Y55.882 E370.3477
G1 X183.362 Y55.882 E370.3643
G1 X183.362 Y145.055 E374.0717
G1 X183.762 Y145.055 E374.0883
G1 X183.762 Y55.882 E377.7957
G1 X184.162 Y55.882 E377.8123
G1 X184.162 Y145.055 E381.5197
G1 X184.562 Y145.055 E381.5363
G1 X184.562 Y55.882 E385.2437
G1 X184.962 Y55.882 E385.2603
G1 X184.962 Y145.055 E388.9677
G1 X185.362 Y145.055 E388.9843
G1 X185.362 Y55.882 E392.6917
G1 X185.762 Y55.882 E392.7083
G1 X185.762 Y145.055 E396.4157
G1 X186.162 Y145.055 E396.4323
G1 X186.162 Y55.882 E400.1397
G1 X186.562 Y55.882 E400.1563
G1 X186.562 Y145.055 E403.8637
G1 X186.962 Y145.055 E403.8803
G1 X186.962 Y55.882 E407.5877
G1 X187.362 Y55.882 E407.6043
G1 X187.362 Y145.055 E411.3117
G1 X187.762 Y145.055 E411.3283
G1 X187.762 Y55.882 E415.0357
G1 X188.162 Y55.882 E415.0523
G1 X188.162 Y145.055 E418.7597
G1 X188.562 Y145.055 E418.7763
G1 X188.562 Y55.882 E422.4837
G1 X188.962 Y55.882 E422.5003
G1 X188.962 Y145.055 E426.2077
G1 X189.362 Y145.055 E426.2243
G1 X189.362 Y55.882 E429.9317
G1 X189.762 Y55.882 E429.9483
G1 X189.762 Y145.055 E433.6557
G1 X190.162 Y145.055 E433.6723
G1 X190.162 Y55.882 E437.3797
G1 X190.562 Y55.882 E437.3963
G1 X190.562 Y145.055 E441.1037
G1 X190.962 Y145.055 E441.1203
G1 X190.962 Y55.882 E444.8277
G1 X191.362 Y55.882 E444.8443
G1 X191.362 Y145.055 E448.5517
G1 X191.762 Y145.055 E448.5683
G1 X191.762 Y55.882 E452.2757
G1 X192.162 Y55.882 E452.2923
G1 X192.162 Y145.055 E455.9997
G1 X192.562 Y145.055 E456.0163
G1 X192.562 Y55.882 E459.7237
G1 X192.962 Y55.882 E459.7403
G1 X192.962 Y145.055 E463.4477
G1 X193.362 Y145.055 E463.4643
G1 X193.362 Y55.882 E467.1717
G1 X193.762 Y55.882 E467.1883
G1 X193.762 Y145.055 E470.8957
G1 X194.162 Y145.055 E470.9123
G1 X194.162 Y55.882 E474.6197
G1 X194.562 Y55.882 E474.6363
G1 X194.562 Y145.055 E478.3437
G1 X194.962 Y145.055 E478.3603
G1 X194.962 Y55.882 E482.0677
G1 X195.362 Y55.882 E482.0843
G1 X195.362 Y145.055 E485.7917
G1 X195.762 Y145.055 E485.8083
G1 X195.762 Y55.882 E489.5157
G1 X196.162 Y55.882 E489.5323
G1 X196.162 Y145.055 E493.2397
G1 X196.562 Y145.055 E493.2563
G1 X196.562 Y55.882 E496.9637
G1 X196.962 Y55.882 E496.9803
G1 X196.962 Y145.055 E500.6877
G1 X197.362 Y145.055 E500.7043
G1 X197.362 Y55.882 E504.4117
G1 X197.762 Y55.882 E504.4283
G1 X197.762 Y145.055 E508.1357
G1 X198.162 Y145.055 E508.1523
G1 X198.162 Y55.882 E511.8597
G1 X198.562 Y55.882 E511.8763
G1 X198.562 Y145.055 E515.5837
G1 X198.962 Y145.055 E515.6003
G1 X198.962 Y55.882 E519.3077
G1 X199.362 Y55.882 E519.3243
G1 X199.362 Y145.055 E523.0317
G1 X199.762 Y145.055 E523.0483
G1 X199.762 Y55.882 E526.7557
G1 X200.162 Y55.882 E526.7723
G1 X200.162 Y145.055 E530.4797
G1 X200.562 Y145.055 E530.4963
G1 X200.562 Y55.882 E534.2037
G1 X200.962 Y55.882 E534.2203
G1 X200.962 Y145.055 E537.9277
G1 X201.362 Y145.055 E537.9443
G1 X201.362 Y55.882 E541.6517
G1 X201.762 Y55.882 E541.6683
G1 X201.762 Y145.055 E545.3757
G1 X202.162 Y145.055 E545.3923
G1 X202.162 Y55.882 E549.0997
G1 X202.562 Y55.882 E549.1163
G1 X202.562 Y145.055 E552.8237
G1 X202.962 Y145.055 E552.8403
G1 X202.962 Y55.882 E556.5477
G1 X203.362 Y55.882 E556.5643
G1 X203.362 Y145.055 E560.2717
G1 X203.762 Y145.055 E560.2883
G1 X203.762 Y55.882 E563.9957
G1 X204.162 Y55.882 E564.0123
G1 X204.162 Y145.055 E567.7197
G1 X204.562 Y145.055 E567.7363
G1 X204.562 Y55.882 E571.4437
G1 X204.962 Y55.882 E571.4603
G1 X204.962 Y145.055 E575.1677
G1 X205.362 Y145.055 E575.1843
G1 X205.362 Y55.882 E578.8917
G1 X205.762 Y55.882 E578.9083
G1 X205.762 Y145.055 E582.6157
G1 X206.162 Y145.055 E582.6323
G1 X206.162 Y55.882 E586.3397
G1 X206.562 Y55.882 E586.3563
G1 X206.562 Y145.055 E590.0637
G1 X206.962 Y145.055 E590.0803
G1 X206.962 Y55.882 E593.7877
G1 X207.362 Y55.882 E593.8043
G1 X207.362 Y145.055 E597.5117
G1 X207.762 Y145.055 E597.5283
G1 X207.762 Y55.882 E601.2357
G1 X208.162 Y55.882 E601.2523
G1 X208.162 Y145.055 E604.9597
G1 X208.562 Y145.055 E604.9763
G1 X208.562 Y55.882 E608.6837
G1 X208.962 Y55.882 E608.7003
G1 X208.962 Y145.055 E612.4077
G1 X209.362 Y145.055 E612.4243
G1 X209.362 Y55.882 E616.1317
G1 X209.762 Y55.882 E616.1483
G1 X209.762 Y145.055 E619.8557
G1 X210.162 Y145.055 E619.8723
G1 X210.162 Y55.882 E623.5797
G1 X210.562 Y55.882 E623.5963
G1 X210.562 Y145.055 E627.3037
G1 X210.962 Y145.055 E627.3203
G1 X210.962 Y55.882 E631.0277
G1 X211.362 Y55.882 E631.0443
G1 X211.362 Y145.055 E634.7517
G1 X211.762 Y145.055 E634.7683
G1 X211.762 Y55.882 E638.4757
G1 X212.162 Y55.882 E638.4923
G1 X212.162 Y145.055 E642.1997
G1 X212.562 Y145.055 E642.2163
G1 X212.562 Y55.882 E645.9237
G1 X212.962 Y55.882 E645.9403
G1 X212.962 Y145.055 E649.6477
G1 X213.362 Y145.055 E649.6643
G1 X213.362 Y55.882 E653.3717
G1 X213.762 Y55.882 E653.3883
G1 X213.762 Y145.055 E657.0957
G1 X214.162 Y145.055 E657.1123
G1 X214.162 Y55.882 E660.8197
G1 X214.562 Y55.882 E660.8363
G1 X214.562 Y145.055 E664.5437
G1 X214.962 Y145.055 E664.5603
G1 X214.962 Y55.882 E668.2677
G1 X215.362 Y55.882 E668.2843
G1 X215.362 Y145.055 E671.9917
G1 X215.762 Y145.055 E672.0083
G1 X215.762 Y55.882 E675.7157
G1 X216.162 Y56.268 E675.7388
G1 X216.162 Y145.055 E679.4301
G1 X216.562 Y145.055 E679.4467
G1 X216.562 Y56.655 E683.1220
G1 X216.962 Y57.041 E683.1452
G1 X216.962 Y145.055 E686.8044
G1 X217.362 Y145.055 E686.8210
G1 X217.362 Y57.427 E690.4642
G1 X217.762 Y57.813 E690.4873
G1 X217.762 Y144.798 E694.1038
G1 X218.162 Y144.412 E694.1269
G1 X218.162 Y58.199 E697.7113
G0 X218.562 Y96.287 F7200
G1 X218.562 Y143.897 E699.6907 F2400
G1 X218.962 Y143.511 E699.7138
G1 X218.962 Y96.673 E701.6612
G1 X219.362 Y97.059 E701.6843
G1 X219.362 Y143.125 E703.5995
G1 X219.762 Y142.739 E703.6226
G1 X219.762 Y97.445 E705.5058
G1 X220.162 Y97.831 E705.5289
G1 X220.162 Y142.353 E707.3799


; ------------------------------------
; Layer #0
; ------------------------------------
G21 ; mm
G90 ; abs
G92 E0 ;reset extr
G0 F600 Z1.740
;segType:HShell
G0 F3000 E-1.0000
G0 X211.637 Y86.737 F4320
G0 F3000 E0.0000
G1 X207.112 Y82.212 E0.2661 F2400
G0 X207.539 Y82.074 F4320
G1 X212.443 Y86.977 E0.5544 F2400
G0 X213.355 Y88.042 F4320
;segType:Perimeter
G1 X197.298 Y83.256 E1.2510 F1439
G1 X197.184 Y83.169 E1.2584
G1 X197.070 Y83.204 E1.2630
G1 X196.956 Y83.239 E1.2659
G1 X196.979 Y83.232 E1.2666
G1 X197.103 Y83.194 E1.2721
G1 X197.173 Y83.102 E1.2769
G1 X197.499 Y82.706 E1.2982
G1 X197.979 Y81.807 E1.3406
G1 X198.275 Y80.831 E1.3830
G1 X198.375 Y79.816 E1.4254
G1 X198.275 Y78.801 E1.4678
G1 X197.979 Y77.826 E1.5102
G1 X197.499 Y76.926 E1.5526
G1 X196.852 Y76.138 E1.5950
G1 X196.064 Y75.491 E1.6374
G1 X195.164 Y75.011 E1.6798
G1 X194.181 Y74.712 E1.7225
G1 X169.536 Y74.616 E2.7471
G1 X168.615 Y74.705 E2.7856
G1 X149.759 Y69.084 E3.6036
G1 X149.759 Y61.017 E3.9390
G1 X213.358 Y61.017 E6.5832
G1 X213.358 Y88.040 E7.7067
G0 X213.365 Y88.045 F4320
G0 X213.365 Y88.045
G0 X213.365 Y88.045
G0 X213.358 Y88.043
G0 X213.358 Y88.040
G0 X212.473 Y87.362
;segType:Loop
G1 X197.984 Y83.043 E8.3353 F2400
G1 X197.870 Y82.960 E8.3425
G1 X197.756 Y83.007 E8.3469
G1 X197.641 Y83.029 E8.3496
G1 X197.722 Y83.004 E8.3525
G1 X197.848 Y82.969 E8.3588
G1 X197.881 Y82.840 E8.3643
G1 X198.351 Y81.960 E8.4058
G1 X198.670 Y80.909 E8.4514
G1 X198.777 Y79.816 E8.4971
G1 X198.670 Y78.723 E8.5428
G1 X198.351 Y77.672 E8.5885
G1 X197.833 Y76.703 E8.6341
G1 X197.136 Y75.854 E8.6798
G1 X196.287 Y75.157 E8.7255
G1 X195.318 Y74.639 E8.7711
G1 X194.241 Y74.313 E8.8179
G1 X169.517 Y74.216 E9.8458
G1 X168.654 Y74.299 E9.8819
G1 X150.159 Y68.786 E10.6843
G1 X150.159 Y61.417 E10.9907
G1 X212.958 Y61.417 E13.6015
G1 X212.958 Y87.507 E14.6863
G1 X212.664 Y87.419 E14.6990
G0 F3000 E13.6990
G0 X209.000 Y79.575 F4320
G0 F3000 E14.6990
;segType:HShell
G1 X212.598 Y83.173 E14.9106 F2400
G0 X212.598 Y83.738 F4320
G1 X208.992 Y80.133 E15.1225 F2400
G0 X208.421 Y79.644 F4320
;segType:Perimeter
G1 X208.210 Y80.206 E15.1475 F1439
G1 X208.130 Y80.467 E15.1589
G1 X207.973 Y80.761 E15.1727
G1 X207.761 Y81.019 E15.1866
G1 X207.504 Y81.231 E15.2005
G1 X207.210 Y81.388 E15.2143
G1 X206.890 Y81.485 E15.2282
G1 X206.558 Y81.518 E15.2421
G1 X206.226 Y81.485 E15.2559
G1 X205.907 Y81.388 E15.2698
G1 X205.613 Y81.231 E15.2837
G1 X205.355 Y81.019 E15.2975
G1 X205.144 Y80.761 E15.3114
G1 X204.987 Y80.467 E15.3253
G1 X204.890 Y80.148 E15.3391
G1 X204.857 Y79.816 E15.3530
G1 X204.890 Y79.484 E15.3669
G1 X204.987 Y79.165 E15.3807
G1 X205.144 Y78.871 E15.3946
G1 X205.355 Y78.613 E15.4085
G1 X205.613 Y78.402 E15.4223
G1 X205.907 Y78.244 E15.4362
G1 X206.226 Y78.148 E15.4501
G1 X206.558 Y78.115 E15.4639
G1 X206.890 Y78.148 E15.4778
G1 X207.209 Y78.244 E15.4917
G1 X207.504 Y78.402 E15.5055
G1 X207.761 Y78.613 E15.5194
G1 X207.973 Y78.871 E15.5333
G1 X208.130 Y79.165 E15.5471
G1 X208.227 Y79.484 E15.5610
G1 X208.260 Y79.816 E15.5748
G1 X208.233 Y80.088 E15.5862
G0 X208.213 Y80.688 F4320
G0 X207.968 Y81.367
;segType:Loop
G1 X207.727 Y81.565 E15.5992 F2400
G1 X207.363 Y81.760 E15.6164
G1 X206.969 Y81.879 E15.6335
G1 X206.559 Y81.919 E15.6506
G1 X206.148 Y81.879 E15.6678
G1 X205.754 Y81.759 E15.6849
G1 X205.390 Y81.565 E15.7021
G1 X205.071 Y81.303 E15.7192
G1 X204.809 Y80.984 E15.7364
G1 X204.615 Y80.621 E15.7535
G1 X204.496 Y80.227 E15.7706
G1 X204.455 Y79.816 E15.7878
G1 X204.496 Y79.406 E15.8049
G1 X204.615 Y79.011 E15.8221
G1 X204.809 Y78.648 E15.8392
G1 X205.071 Y78.329 E15.8563
G1 X205.390 Y78.067 E15.8735
G1 X205.754 Y77.873 E15.8906
G1 X206.148 Y77.753 E15.9078
G1 X206.559 Y77.713 E15.9249
G1 X206.969 Y77.753 E15.9421
G1 X207.363 Y77.873 E15.9592
G1 X207.727 Y78.067 E15.9764
G1 X208.046 Y78.329 E15.9935
G1 X208.307 Y78.648 E16.0106
G1 X208.502 Y79.011 E16.0278
G1 X208.621 Y79.406 E16.0449
G1 X208.662 Y79.816 E16.0621
G1 X208.621 Y80.226 E16.0792
G1 X208.502 Y80.621 E16.0963
G1 X208.307 Y80.985 E16.1135
G0 F3000 E15.1135
G0 X207.916 Y80.830 F4320
G0 X204.875 Y79.631
G0 X204.875 Y79.631
G0 X198.275 Y78.801
G0 X197.979 Y77.826
G0 X197.499 Y76.926
G0 X197.250 Y76.624
G0 X197.250 Y76.624
G0 X196.852 Y76.138
G0 X196.064 Y75.491
G0 X195.164 Y75.011
G0 X194.181 Y74.712
G0 X192.386 Y74.705
G0 X180.954 Y70.197
G0 F3000 E16.1135
;segType:HShell
G1 X184.673 Y73.915 E16.3321 F2400
G0 X185.241 Y73.917 F4320
G1 X181.600 Y70.277 E16.5461 F2400
G0 X181.731 Y69.678 F4320
;segType:Perimeter
G1 X181.169 Y69.467 E16.5711 F1439
G1 X180.907 Y69.388 E16.5824
G1 X180.613 Y69.231 E16.5963
G1 X180.355 Y69.019 E16.6102
G1 X180.144 Y68.761 E16.6240
G1 X179.986 Y68.467 E16.6379
G1 X179.890 Y68.148 E16.6518
G1 X179.857 Y67.816 E16.6656
G1 X179.890 Y67.484 E16.6795
G1 X179.986 Y67.165 E16.6934
G1 X180.144 Y66.871 E16.7072
G1 X180.355 Y66.613 E16.7211
G1 X180.613 Y66.401 E16.7350
G1 X180.907 Y66.244 E16.7488
G1 X181.226 Y66.147 E16.7627
G1 X181.559 Y66.115 E16.7766
G1 X181.890 Y66.147 E16.7904
G1 X182.210 Y66.244 E16.8043
G1 X182.503 Y66.401 E16.8182
G1 X182.762 Y66.613 E16.8320
G1 X182.973 Y66.871 E16.8459
G1 X183.130 Y67.165 E16.8598
G1 X183.227 Y67.484 E16.8736
G1 X183.260 Y67.816 E16.8875
G1 X183.227 Y68.148 E16.9014
G1 X183.130 Y68.467 E16.9152
G1 X182.973 Y68.761 E16.9291
G1 X182.761 Y69.019 E16.9430
G1 X182.504 Y69.231 E16.9568
G1 X182.210 Y69.388 E16.9707
G1 X181.890 Y69.485 E16.9846
G1 X181.559 Y69.517 E16.9984
G1 X181.286 Y69.491 E17.0098
G0 X180.687 Y69.471 F4320
G0 X180.008 Y69.226
;segType:Loop
G1 X179.810 Y68.985 E17.0228 F2400
G1 X179.615 Y68.621 E17.0399
G1 X179.496 Y68.226 E17.0571
G1 X179.455 Y67.816 E17.0742
G1 X179.496 Y67.406 E17.0914
G1 X179.615 Y67.011 E17.1085
G1 X179.810 Y66.648 E17.1257
G1 X180.071 Y66.329 E17.1428
G1 X180.390 Y66.067 E17.1600
G1 X180.753 Y65.873 E17.1771
G1 X181.148 Y65.753 E17.1942
G1 X181.559 Y65.713 E17.2114
G1 X181.969 Y65.753 E17.2285
G1 X182.364 Y65.873 E17.2457
G1 X182.727 Y66.067 E17.2628
G1 X183.046 Y66.329 E17.2799
G1 X183.307 Y66.648 E17.2971
G1 X183.502 Y67.011 E17.3142
G1 X183.621 Y67.406 E17.3314
G1 X183.662 Y67.816 E17.3485
G1 X183.621 Y68.226 E17.3656
G1 X183.502 Y68.621 E17.3828
G1 X183.307 Y68.985 E17.3999
G1 X183.046 Y69.303 E17.4171
G1 X182.727 Y69.565 E17.4342
G1 X182.364 Y69.759 E17.4513
G1 X181.969 Y69.879 E17.4685
G1 X181.559 Y69.919 E17.4856
G1 X181.148 Y69.879 E17.5028
G1 X180.753 Y69.759 E17.5199
G1 X180.390 Y69.565 E17.5371
G0 X182.104 Y70.215 F4320
;segType:HShell
G1 X185.808 Y73.919 E17.7549 F2400
G0 X186.376 Y73.922 F4320
G1 X182.532 Y70.078 E17.9809 F2400
G0 X182.901 Y69.880 F4320
G1 X186.944 Y73.924 E18.2187 F2400
G0 X187.512 Y73.926 F4320
G1 X183.216 Y69.630 E18.4713 F2400
G0 X183.486 Y69.334 F4320
G1 X188.080 Y73.928 E18.7414 F2400
G0 X188.648 Y73.931 F4320
G1 X183.711 Y68.993 E19.0317 F2400
G0 X183.884 Y68.601 F4320
G1 X189.216 Y73.933 E19.3452 F2400
G0 X189.784 Y73.935 F4320
G1 X183.991 Y68.143 E19.6857 F2400
G0 X184.001 Y67.586 F4320
G1 X190.352 Y73.937 E20.0591 F2400
G0 X190.920 Y73.939 F4320
G1 X183.817 Y66.836 E20.4768 F2400
G0 X185.545 Y61.777 F4320
G1 X204.173 Y80.405 E21.5720 F2400
G0 X204.098 Y79.764 F4320
G1 X186.111 Y61.777 E22.6296 F2400
G0 X186.677 Y61.777 F4320
G1 X204.163 Y79.263 E23.6578 F2400
G0 X204.301 Y78.835 F4320
G1 X187.242 Y61.777 E24.6607 F2400
G0 X187.808 Y61.777 F4320
G1 X204.498 Y78.467 E25.6420 F2400
G0 X204.750 Y78.153 F4320
G1 X188.374 Y61.777 E26.6049 F2400
G0 X188.939 Y61.777 F4320
G1 X205.046 Y77.884 E27.5519 F2400
G0 X205.388 Y77.660 F4320
G1 X189.505 Y61.777 E28.4858 F2400
G0 X190.071 Y61.777 F4320
G1 X205.782 Y77.488 E29.4096 F2400
G0 X206.242 Y77.382 F4320
G1 X190.636 Y61.777 E30.3271 F2400
G0 X191.202 Y61.777 F4320
G1 X206.800 Y77.375 E31.2442 F2400
G0 X207.561 Y77.570 F4320
G1 X191.768 Y61.777 E32.1728 F2400
G0 F3000 E31.1728
G0 X191.656 Y61.417 F4320
G0 X195.861 Y74.929
G0 X195.861 Y74.929
G0 X196.287 Y75.157
G0 X197.136 Y75.854
G0 X197.833 Y76.703
G0 X198.351 Y77.672
G0 X198.670 Y78.723
G0 X198.777 Y79.816
G0 X198.670 Y80.909
G0 X198.351 Y81.960
G0 X198.160 Y82.317
G0 X198.160 Y82.317
G0 X198.428 Y83.175
G0 X198.304 Y82.779
G0 F3000 E32.1728
;segType:InnerHair
G1 X198.213 Y82.817 E32.1745 F2400
G1 X198.327 Y82.769 E32.1786
G1 X198.304 Y82.779 E32.1794
G0 X198.428 Y82.579 F4320
;segType:HShell
G1 X198.742 Y82.893 E32.1978 F2400
G0 X199.548 Y83.133 F4320
G1 X198.625 Y82.211 E32.2520 F2400
G0 X198.777 Y81.797 F4320
G1 X200.354 Y83.373 E32.3447 F2400
G0 X201.160 Y83.614 F4320
G1 X198.908 Y81.363 E32.4771 F2400
G0 X199.031 Y80.919 F4320
G1 X201.965 Y83.854 E32.6497 F2400
G0 X202.771 Y84.094 F4320
G1 X199.081 Y80.404 E32.8666 F2400
G0 X199.132 Y79.889 F4320
G1 X203.577 Y84.334 E33.1280 F2400
G0 X204.383 Y84.575 F4320
G1 X199.086 Y79.278 E33.4394 F2400
G0 X199.024 Y78.649 F4320
G1 X205.189 Y84.815 E33.8020 F2400
G0 X205.995 Y85.055 F4320
G1 X198.777 Y77.837 E34.2264 F2400
G0 X198.279 Y76.773 F4320
G1 X206.801 Y85.295 E34.7274 F2400
G0 X208.804 Y78.813 F4320
G1 X212.598 Y82.607 E34.9505 F2400
G0 X212.598 Y82.041 F4320
G1 X192.333 Y61.777 E36.1420 F2400
G0 X192.899 Y61.777 F4320
G1 X212.598 Y81.476 E37.3002 F2400
G0 X212.598 Y80.910 F4320
G1 X193.465 Y61.777 E38.4251 F2400
G0 X194.030 Y61.777 F4320
G1 X212.598 Y80.344 E39.5169 F2400
G0 X212.598 Y79.779 F4320
G1 X194.596 Y61.777 E40.5753 F2400
G0 X195.162 Y61.777 F4320
G1 X212.598 Y79.213 E41.6005 F2400
G0 X212.598 Y78.647 F4320
G1 X195.727 Y61.777 E42.5924 F2400
G0 X196.293 Y61.777 F4320
G1 X212.598 Y78.082 E43.5511 F2400
G0 X212.598 Y77.516 F4320
G1 X196.859 Y61.777 E44.4765 F2400
G0 X197.425 Y61.777 F4320
G1 X212.598 Y76.950 E45.3686 F2400
G0 X212.598 Y76.384 F4320
G1 X197.990 Y61.777 E46.2275 F2400
G0 X198.556 Y61.777 F4320
G1 X212.598 Y75.819 E47.0531 F2400
G0 X212.598 Y75.253 F4320
G1 X199.122 Y61.777 E47.8455 F2400
G0 X199.687 Y61.777 F4320
G1 X212.598 Y74.687 E48.6046 F2400
G0 X212.598 Y74.122 F4320
G1 X200.253 Y61.777 E49.3304 F2400
G0 X200.819 Y61.777 F4320
G1 X212.598 Y73.556 E50.0230 F2400
G0 X212.598 Y72.990 F4320
G1 X201.384 Y61.777 E50.6823 F2400
G0 X201.950 Y61.777 F4320
G1 X212.598 Y72.425 E51.3084 F2400
G0 X212.598 Y71.859 F4320
G1 X202.516 Y61.777 E51.9012 F2400
G0 X203.081 Y61.777 F4320
G1 X212.598 Y71.293 E52.4607 F2400
G0 X212.598 Y70.728 F4320
G1 X203.647 Y61.777 E52.9870 F2400
G0 X204.213 Y61.777 F4320
G1 X212.598 Y70.162 E53.4800 F2400
G0 X212.598 Y69.596 F4320
G1 X204.778 Y61.777 E53.9398 F2400
G0 X205.344 Y61.777 F4320
G1 X212.598 Y69.031 E54.3663 F2400
G0 X212.598 Y68.465 F4320
G1 X205.910 Y61.777 E54.7595 F2400
G0 X206.475 Y61.777 F4320
G1 X212.598 Y67.899 E55.1195 F2400
G0 X212.598 Y67.334 F4320
G1 X207.041 Y61.777 E55.4463 F2400
G0 X207.607 Y61.777 F4320
G1 X212.598 Y66.768 E55.7397 F2400
G0 X212.598 Y66.202 F4320
G1 X208.173 Y61.777 E55.9999 F2400
G0 X208.738 Y61.777 F4320
G1 X212.598 Y65.636 E56.2269 F2400
G0 X212.598 Y65.071 F4320
G1 X209.304 Y61.777 E56.4205 F2400
G0 X209.870 Y61.777 F4320
G1 X212.598 Y64.505 E56.5810 F2400
G0 X212.598 Y63.939 F4320
G1 X210.435 Y61.777 E56.7081 F2400
G0 X211.001 Y61.777 F4320
G1 X212.598 Y63.374 E56.8020 F2400
G0 X212.598 Y62.808 F4320
G1 X211.567 Y61.777 E56.8626 F2400
G0 X212.132 Y61.777 F4320
G1 X212.598 Y62.242 E56.8900 F2400
G0 X208.887 Y80.593 F4320
G1 X212.598 Y84.304 E57.1082 F2400
G0 X212.598 Y84.870 F4320
G1 X208.715 Y80.986 E57.3366 F2400
G0 X208.491 Y81.328 F4320
G1 X212.598 Y85.435 E57.5781 F2400
G0 X212.598 Y86.001 F4320
G1 X208.222 Y81.625 E57.8354 F2400
G0 X207.908 Y81.877 F4320
G1 X212.598 Y86.567 E58.1111 F2400
G0 X210.831 Y86.497 F4320
G1 X206.610 Y82.276 E58.3593 F2400
G0 X205.970 Y82.201 F4320
G1 X210.025 Y86.256 E58.5977 F2400
G0 X209.219 Y86.016 F4320
G1 X184.979 Y61.777 E60.0229 F2400
G0 X184.414 Y61.777 F4320
G1 X208.413 Y85.776 E61.4340 F2400
G0 X207.607 Y85.536 F4320
G1 X183.848 Y61.777 E62.8309 F2400
G0 X183.282 Y61.777 F4320
G1 X196.217 Y74.711 E63.5914 F2400
G0 X195.153 Y74.213 F4320
G1 X182.717 Y61.777 E64.3226 F2400
G0 X182.151 Y61.777 F4320
G1 X194.341 Y73.967 E65.0393 F2400
G0 X193.759 Y73.951 F4320
G1 X181.585 Y61.777 E65.7551 F2400
G0 X181.020 Y61.777 F4320
G1 X193.191 Y73.948 E66.4707 F2400
G0 X192.623 Y73.946 F4320
G1 X180.454 Y61.777 E67.1863 F2400
G0 X179.888 Y61.777 F4320
G1 X192.055 Y73.944 E67.9016 F2400
G0 X191.488 Y73.942 F4320
G1 X179.323 Y61.777 E68.6169 F2400
G0 X178.757 Y61.777 F4320
G1 X182.538 Y65.558 E68.8392 F2400
G0 X181.788 Y65.374 F4320
G1 X178.191 Y61.777 E69.0507 F2400
G0 X177.626 Y61.777 F4320
G1 X181.232 Y65.383 E69.2628 F2400
G0 X180.774 Y65.491 F4320
G1 X177.060 Y61.777 E69.4811 F2400
G0 X176.494 Y61.777 F4320
G1 X180.381 Y65.664 E69.7097 F2400
G0 X180.040 Y65.888 F4320
G1 X175.928 Y61.777 E69.9514 F2400
G0 X175.363 Y61.777 F4320
G1 X179.745 Y66.159 E70.2091 F2400
G0 X179.494 Y66.474 F4320
G1 X174.797 Y61.777 E70.4852 F2400
G0 X174.231 Y61.777 F4320
G1 X179.297 Y66.842 E70.7831 F2400
G0 X179.160 Y67.271 F4320
G1 X173.666 Y61.777 E71.1061 F2400
G0 X173.100 Y61.777 F4320
G1 X179.097 Y67.774 E71.4588 F2400
G0 X179.178 Y68.420 F4320
G1 X172.534 Y61.777 E71.8494 F2400
G0 X171.969 Y61.777 F4320
G1 X184.105 Y73.913 E72.5629 F2400
G0 X183.537 Y73.911 F4320
G1 X171.403 Y61.777 E73.2764 F2400
G0 X170.837 Y61.777 F4320
G1 X182.969 Y73.908 E73.9897 F2400
G0 X182.401 Y73.906 F4320
G1 X170.272 Y61.777 E74.7028 F2400
G0 X169.706 Y61.777 F4320
G1 X181.833 Y73.904 E75.4159 F2400
G0 X181.265 Y73.902 F4320
G1 X169.140 Y61.777 E76.1287 F2400
G0 X168.575 Y61.777 F4320
G1 X180.697 Y73.899 E76.8415 F2400
G0 X180.129 Y73.897 F4320
G1 X168.009 Y61.777 E77.5542 F2400
G0 X167.443 Y61.777 F4320
G1 X179.561 Y73.895 E78.2667 F2400
G0 X178.994 Y73.893 F4320
G1 X166.877 Y61.777 E78.9790 F2400
G0 X166.312 Y61.777 F4320
G1 X178.426 Y73.891 E79.6913 F2400
G0 X177.858 Y73.888 F4320
G1 X165.746 Y61.777 E80.4034 F2400
G0 X165.180 Y61.777 F4320
G1 X177.290 Y73.886 E81.1154 F2400
G0 X176.722 Y73.884 F4320
G1 X164.615 Y61.777 E81.8272 F2400
G0 X164.049 Y61.777 F4320
G1 X176.154 Y73.882 E82.5390 F2400
G0 X175.586 Y73.879 F4320
G1 X163.483 Y61.777 E83.2506 F2400
G0 X162.918 Y61.777 F4320
G1 X175.018 Y73.877 E83.9620 F2400
G0 X174.450 Y73.875 F4320
G1 X162.352 Y61.777 E84.6734 F2400
G0 X161.786 Y61.777 F4320
G1 X173.882 Y73.873 E85.3846 F2400
G0 X173.314 Y73.870 F4320
G1 X161.221 Y61.777 E86.0956 F2400
G0 X160.655 Y61.777 F4320
G1 X172.747 Y73.868 E86.8066 F2400
G0 X172.179 Y73.866 F4320
G1 X160.089 Y61.777 E87.5174 F2400
G0 X159.524 Y61.777 F4320
G1 X171.611 Y73.864 E88.2280 F2400
G0 X171.043 Y73.862 F4320
G1 X158.958 Y61.777 E88.9386 F2400
G0 X158.392 Y61.777 F4320
G1 X170.475 Y73.859 E89.6490 F2400
G0 X169.907 Y73.857 F4320
G1 X157.827 Y61.777 E90.3593 F2400
G0 X157.261 Y61.777 F4320
G1 X169.354 Y73.870 E91.0703 F2400
G0 X168.838 Y73.920 F4320
G1 X156.695 Y61.777 E91.7843 F2400
G0 X156.129 Y61.777 F4320
G1 X168.116 Y73.763 E92.4890 F2400
G0 X167.310 Y73.523 F4320
G1 X155.564 Y61.777 E93.1797 F2400
G0 X154.998 Y61.777 F4320
G1 X166.504 Y73.283 E93.8562 F2400
G0 X165.698 Y73.042 F4320
G1 X154.432 Y61.777 E94.5185 F2400
G0 X153.867 Y61.777 F4320
G1 X164.892 Y72.802 E95.1668 F2400
G0 X164.086 Y72.562 F4320
G1 X153.301 Y61.777 E95.8009 F2400
G0 X152.735 Y61.777 F4320
G1 X163.280 Y72.321 E96.4209 F2400
G0 X162.474 Y72.081 F4320
G1 X152.170 Y61.777 E97.0268 F2400
G0 X151.604 Y61.777 F4320
G1 X161.668 Y71.841 E97.6185 F2400
G0 X160.862 Y71.601 F4320
G1 X151.038 Y61.777 E98.1961 F2400
G0 X150.519 Y61.823 F4320
G1 X160.056 Y71.360 E98.7569 F2400
G0 X159.250 Y71.120 F4320
G1 X150.519 Y62.389 E99.2703 F2400
G0 X150.519 Y62.954 F4320
G1 X158.444 Y70.880 E99.7363 F2400
G0 X157.639 Y70.640 F4320
G1 X150.519 Y63.520 E100.1549 F2400
G0 X150.519 Y64.086 F4320
G1 X156.833 Y70.399 E100.5261 F2400
G0 X156.027 Y70.159 F4320
G1 X150.519 Y64.651 E100.8500 F2400
G0 X150.519 Y65.217 F4320
G1 X155.221 Y69.919 E101.1264 F2400
G0 X154.415 Y69.679 F4320
G1 X150.519 Y65.783 E101.3555 F2400
G0 X150.519 Y66.348 F4320
G1 X153.609 Y69.438 E101.5372 F2400
G0 X152.803 Y69.198 F4320
G1 X150.519 Y66.914 E101.6715 F2400
G0 X150.519 Y67.480 F4320
G1 X151.997 Y68.958 E101.7584 F2400
G0 X151.191 Y68.718 F4320
G1 X150.519 Y68.045 E101.7979 F2400
G0 F3000 E100.7979
G0 X151.379 Y72.865 F4320
G0 F3000 E101.7979
G1 X155.951 Y77.437 E102.0667 F2400
G0 X155.531 Y77.583 F4320
G1 X150.573 Y72.625 E102.3582 F2400
G0 X149.813 Y71.605 F4320
;segType:Perimeter
G1 X165.527 Y76.290 E103.0400 F1439
G1 X165.641 Y76.359 E103.0465
G1 X165.756 Y76.324 E103.0506
G1 X165.870 Y76.289 E103.0532
G1 X165.811 Y76.307 E103.0549
G1 X165.688 Y76.345 E103.0605
G1 X165.620 Y76.439 E103.0653
G1 X165.220 Y76.926 E103.0915
G1 X164.739 Y77.826 E103.1339
G1 X164.443 Y78.801 E103.1763
G1 X164.343 Y79.816 E103.2187
G1 X164.443 Y80.831 E103.2611
G1 X164.739 Y81.807 E103.3034
G1 X165.220 Y82.706 E103.3458
G1 X165.867 Y83.494 E103.3882
G1 X166.655 Y84.141 E103.4306
G1 X167.554 Y84.622 E103.4730
G1 X168.530 Y84.918 E103.5154
G1 X169.535 Y85.016 E103.5574
G1 X194.181 Y84.920 E104.5820
G1 X194.328 Y84.876 E104.5884
G1 X213.358 Y90.549 E105.4140
G1 X213.358 Y97.616 E105.7078
G1 X149.759 Y97.616 E108.3520
G1 X149.759 Y71.646 E109.4317
G0 X150.134 Y72.118 F4320
;segType:Loop
G1 X164.841 Y76.503 E110.0698 F2400
G1 X164.956 Y76.548 E110.0752
G1 X165.070 Y76.534 E110.0791
G1 X165.069 Y76.534 E110.0792
G1 X164.945 Y76.572 E110.0855
G1 X164.896 Y76.684 E110.0906
G1 X164.368 Y77.672 E110.1372
G1 X164.049 Y78.723 E110.1828
G1 X163.941 Y79.816 E110.2285
G1 X164.049 Y80.909 E110.2742
G1 X164.368 Y81.960 E110.3199
G1 X164.886 Y82.929 E110.3655
G1 X165.582 Y83.778 E110.4112
G1 X166.432 Y84.475 E110.4569
G1 X167.400 Y84.993 E110.5025
G1 X168.452 Y85.312 E110.5482
G1 X169.516 Y85.417 E110.5927
G1 X194.241 Y85.320 E111.6206
G1 X194.328 Y85.293 E111.6244
G1 X212.958 Y90.847 E112.4326
G1 X212.958 Y97.216 E112.6974
G1 X150.159 Y97.216 E115.3083
G1 X150.159 Y72.226 E116.3473
G0 F3000 E115.3473
G0 X150.159 Y72.226 F4320
G0 X155.037 Y78.370
G0 X155.037 Y78.370
G0 X154.810 Y78.648
G0 X154.615 Y79.011
G0 X154.495 Y79.406
G0 X154.455 Y79.816
G0 X154.495 Y80.226
G0 X154.615 Y80.621
G0 X154.810 Y80.985
G0 X155.071 Y81.303
G0 X155.390 Y81.565
G0 X155.753 Y81.759
G0 X156.148 Y81.879
G0 X156.558 Y81.919
G0 X156.969 Y81.879
G0 X157.363 Y81.759
G0 X157.619 Y81.623
G0 X157.619 Y81.623
G0 X169.998 Y97.216
G0 X169.712 Y96.856
G0 F3000 E116.3473
;segType:HShell
G1 X150.519 Y77.662 E117.4758 F2400
G0 X150.519 Y77.096 F4320
G1 X154.395 Y80.972 E117.7037 F2400
G0 X154.904 Y80.688 F4320
;segType:Perimeter
G1 X154.884 Y80.088 E117.7286 F1439
G1 X154.857 Y79.816 E117.7400
G1 X154.890 Y79.484 E117.7539
G1 X154.987 Y79.165 E117.7677
G1 X155.144 Y78.871 E117.7816
G1 X155.355 Y78.613 E117.7955
G1 X155.613 Y78.402 E117.8093
G1 X155.907 Y78.244 E117.8232
G1 X156.227 Y78.148 E117.8371
G1 X156.558 Y78.115 E117.8509
G1 X156.890 Y78.148 E117.8648
G1 X157.209 Y78.244 E117.8786
G1 X157.504 Y78.402 E117.8925
G1 X157.762 Y78.613 E117.9064
G1 X157.973 Y78.871 E117.9203
G1 X158.130 Y79.165 E117.9341
G1 X158.227 Y79.484 E117.9480
G1 X158.260 Y79.816 E117.9618
G1 X158.227 Y80.148 E117.9757
G1 X158.130 Y80.467 E117.9896
G1 X157.973 Y80.761 E118.0034
G1 X157.762 Y81.019 E118.0173
G1 X157.504 Y81.231 E118.0312
G1 X157.209 Y81.388 E118.0451
G1 X156.890 Y81.485 E118.0589
G1 X156.558 Y81.518 E118.0728
G1 X156.227 Y81.485 E118.0866
G1 X155.907 Y81.388 E118.1005
G1 X155.613 Y81.231 E118.1144
G1 X155.355 Y81.019 E118.1282
G1 X155.144 Y80.761 E118.1421
G1 X154.987 Y80.467 E118.1560
G1 X154.907 Y80.205 E118.1673
G0 X154.696 Y79.644 F4320
G0 X154.662 Y78.923
;segType:Loop
G1 X154.810 Y78.648 E118.1803 F2400
G1 X155.071 Y78.329 E118.1974
G1 X155.390 Y78.067 E118.2146
G1 X155.754 Y77.873 E118.2317
G1 X156.148 Y77.753 E118.2489
G1 X156.558 Y77.713 E118.2660
G1 X156.969 Y77.753 E118.2832
G1 X157.363 Y77.873 E118.3003
G1 X157.727 Y78.067 E118.3175
G1 X158.046 Y78.329 E118.3346
G1 X158.307 Y78.648 E118.3517
G1 X158.501 Y79.011 E118.3689
G1 X158.621 Y79.406 E118.3860
G1 X158.662 Y79.816 E118.4032
G1 X158.621 Y80.227 E118.4203
G1 X158.501 Y80.621 E118.4374
G1 X158.307 Y80.984 E118.4546
G1 X158.046 Y81.303 E118.4717
G1 X157.727 Y81.565 E118.4889
G1 X157.363 Y81.759 E118.5060
G1 X156.969 Y81.879 E118.5232
G1 X156.558 Y81.919 E118.5403
G1 X156.148 Y81.879 E118.5574
G1 X155.753 Y81.759 E118.5746
G1 X155.390 Y81.565 E118.5917
G1 X155.071 Y81.303 E118.6089
G1 X154.810 Y80.985 E118.6260
G1 X154.615 Y80.621 E118.6431
G1 X154.495 Y80.226 E118.6603
G1 X154.455 Y79.816 E118.6775
G1 X154.495 Y79.406 E118.6946
G0 F3000 E117.6946
G0 X154.884 Y79.545 F4320
G0 X154.857 Y79.816
G0 X154.890 Y80.148
G0 X154.987 Y80.467
G0 X155.144 Y80.761
G0 X155.355 Y81.019
G0 X155.613 Y81.231
G0 X155.907 Y81.388
G0 X156.227 Y81.485
G0 X156.558 Y81.518
G0 X156.890 Y81.485
G0 X157.209 Y81.388
G0 X157.504 Y81.231
G0 X157.762 Y81.019
G0 X157.973 Y80.761
G0 X158.021 Y80.672
G0 X158.021 Y80.672
G0 X158.130 Y80.467
G0 X158.227 Y80.148
G0 X164.443 Y80.831
G0 X164.739 Y81.807
G0 X165.220 Y82.706
G0 X165.863 Y83.490
G0 X165.863 Y83.490
G0 X170.106 Y85.014
G0 X172.199 Y85.766
G0 F3000 E118.6946
;segType:HShell
G1 X179.382 Y92.949 E119.1169 F2400
G0 X180.105 Y92.994 F4320
;segType:Perimeter
G1 X179.969 Y92.410 E119.1418 F1439
G1 X179.890 Y92.148 E119.1532
G1 X179.857 Y91.816 E119.1671
G1 X179.890 Y91.484 E119.1809
G1 X179.986 Y91.165 E119.1948
G1 X180.144 Y90.871 E119.2087
G1 X180.355 Y90.613 E119.2225
G1 X180.613 Y90.401 E119.2364
G1 X180.907 Y90.244 E119.2503
G1 X181.226 Y90.147 E119.2641
G1 X181.559 Y90.115 E119.2780
G1 X181.890 Y90.147 E119.2919
G1 X182.210 Y90.244 E119.3058
G1 X182.504 Y90.401 E119.3196
G1 X182.761 Y90.613 E119.3335
G1 X182.973 Y90.871 E119.3473
G1 X183.130 Y91.165 E119.3612
G1 X183.227 Y91.484 E119.3751
G1 X183.260 Y91.816 E119.3890
G1 X183.227 Y92.148 E119.4028
G1 X183.130 Y92.467 E119.4167
G1 X182.973 Y92.761 E119.4306
G1 X182.762 Y93.019 E119.4444
G1 X182.504 Y93.231 E119.4583
G1 X182.210 Y93.388 E119.4721
G1 X181.890 Y93.485 E119.4860
G1 X181.559 Y93.518 E119.4999
G1 X181.226 Y93.485 E119.5138
G1 X180.907 Y93.388 E119.5276
G1 X180.613 Y93.231 E119.5415
G1 X180.355 Y93.019 E119.5553
G1 X180.144 Y92.761 E119.5692
G1 X180.015 Y92.520 E119.5806
G0 X179.698 Y92.010 F4320
G0 X179.525 Y91.310
;segType:Loop
G1 X179.615 Y91.011 E119.5936 F2400
G1 X179.810 Y90.647 E119.6107
G1 X180.071 Y90.329 E119.6278
G1 X180.390 Y90.067 E119.6450
G1 X180.753 Y89.873 E119.6621
G1 X181.148 Y89.753 E119.6793
G1 X181.559 Y89.713 E119.6964
G1 X181.969 Y89.753 E119.7136
G1 X182.363 Y89.873 E119.7307
G1 X182.727 Y90.067 E119.7478
G1 X183.046 Y90.329 E119.7650
G1 X183.307 Y90.647 E119.7821
G1 X183.502 Y91.011 E119.7993
G1 X183.621 Y91.406 E119.8164
G1 X183.662 Y91.816 E119.8336
G1 X183.621 Y92.226 E119.8507
G1 X183.502 Y92.621 E119.8678
G1 X183.307 Y92.985 E119.8850
G1 X183.046 Y93.303 E119.9021
G1 X182.727 Y93.565 E119.9193
G1 X182.364 Y93.759 E119.9364
G1 X181.969 Y93.879 E119.9535
G1 X181.559 Y93.920 E119.9707
G1 X181.148 Y93.879 E119.9878
G1 X180.754 Y93.759 E120.0050
G1 X180.390 Y93.565 E120.0221
G1 X180.071 Y93.303 E120.0393
G1 X179.810 Y92.985 E120.0564
G1 X179.615 Y92.621 E120.0735
G1 X179.496 Y92.226 E120.0907
G1 X179.455 Y91.816 E120.1078
G0 X179.124 Y92.125 F4320
;segType:HShell
G1 X172.763 Y85.764 E120.4818 F2400
G0 X173.326 Y85.762 F4320
G1 X179.119 Y91.554 E120.8224 F2400
G0 X179.216 Y91.086 F4320
G1 X173.890 Y85.760 E121.1356 F2400
G0 X174.453 Y85.757 F4320
G1 X179.381 Y90.685 E121.4253 F2400
G0 X179.599 Y90.337 F4320
G1 X175.017 Y85.755 E121.6947 F2400
G0 X175.580 Y85.753 F4320
G1 X179.862 Y90.035 E121.9464 F2400
G0 X180.173 Y89.780 F4320
G1 X176.144 Y85.751 E122.1833 F2400
G0 X176.707 Y85.749 F4320
G1 X180.538 Y89.580 E122.4086 F2400
G0 X180.959 Y89.434 F4320
G1 X177.271 Y85.746 E122.6254 F2400
G0 X177.834 Y85.744 F4320
G1 X181.452 Y89.362 E122.8381 F2400
G0 X182.060 Y89.405 F4320
G1 X178.398 Y85.742 E123.0535 F2400
G0 X178.961 Y85.740 F4320
G1 X183.262 Y90.041 E123.3063 F2400
G0 X183.334 Y90.113 F4320
G1 X190.077 Y96.856 E123.7028 F2400
G0 X189.511 Y96.856 F4320
G1 X183.970 Y91.314 E124.0286 F2400
G0 X184.013 Y91.923 F4320
G1 X188.946 Y96.856 E124.3186 F2400
G0 X188.380 Y96.856 F4320
G1 X183.940 Y92.416 E124.5797 F2400
G0 X183.795 Y92.836 F4320
G1 X187.814 Y96.856 E124.8160 F2400
G0 X187.249 Y96.856 F4320
G1 X183.595 Y93.202 E125.0308 F2400
G0 X183.340 Y93.513 F4320
G1 X186.683 Y96.856 E125.2274 F2400
G0 X186.117 Y96.856 F4320
G1 X183.038 Y93.776 E125.4085 F2400
G0 X182.689 Y93.993 F4320
G1 X185.552 Y96.856 E125.5768 F2400
G0 X184.986 Y96.856 F4320
G1 X182.289 Y94.158 E125.7354 F2400
G0 X181.820 Y94.256 F4320
G1 X184.420 Y96.856 E125.8882 F2400
G0 X183.855 Y96.856 F4320
G1 X181.250 Y94.251 E126.0414 F2400
G0 X180.426 Y93.992 F4320
G1 X183.289 Y96.856 E126.2097 F2400
G0 X182.723 Y96.856 F4320
G1 X171.636 Y85.768 E126.8616 F2400
G0 X171.072 Y85.771 F4320
G1 X182.157 Y96.856 E127.5134 F2400
G0 X181.592 Y96.856 F4320
G1 X170.509 Y85.773 E128.1650 F2400
G0 X169.946 Y85.775 F4320
G1 X181.026 Y96.856 E128.8165 F2400
G0 X180.460 Y96.856 F4320
G1 X169.369 Y85.764 E129.4686 F2400
G0 X168.741 Y85.702 F4320
G1 X179.895 Y96.856 E130.1244 F2400
G0 X179.329 Y96.856 F4320
G1 X168.035 Y85.562 E130.7884 F2400
G0 X167.204 Y85.296 F4320
G1 X178.763 Y96.856 E131.4681 F2400
G0 X178.198 Y96.856 F4320
G1 X165.603 Y84.261 E132.2086 F2400
G0 X165.100 Y83.758 F4320
G1 X155.408 Y74.066 E132.7784 F2400
G0 X154.602 Y73.826 F4320
G1 X177.632 Y96.856 E134.1325 F2400
G0 X177.066 Y96.856 F4320
G1 X158.384 Y78.173 E135.2309 F2400
G0 X158.201 Y77.991 F4320
G1 X153.797 Y73.586 E135.4899 F2400
G0 X152.991 Y73.346 F4320
G1 X157.045 Y77.400 E135.7283 F2400
G0 X156.442 Y77.362 F4320
G1 X152.185 Y73.105 E135.9786 F2400
G0 X150.519 Y73.137 F4320
G1 X155.167 Y77.785 E136.2519 F2400
G0 X154.856 Y78.040 F4320
G1 X150.519 Y73.702 E136.5069 F2400
G0 X150.519 Y74.268 F4320
G1 X154.594 Y78.343 E136.7465 F2400
G0 X154.377 Y78.692 F4320
G1 X150.519 Y74.834 E136.9734 F2400
G0 X150.519 Y75.399 F4320
G1 X154.214 Y79.094 E137.1906 F2400
G0 X154.118 Y79.564 F4320
G1 X150.519 Y75.965 E137.4022 F2400
G0 X150.519 Y76.531 F4320
G1 X154.125 Y80.137 E137.6142 F2400
G0 X156.214 Y74.307 F4320
G1 X164.065 Y82.157 E138.0758 F2400
G0 X163.799 Y81.326 F4320
G1 X157.020 Y74.547 E138.4744 F2400
G0 X157.826 Y74.787 F4320
G1 X163.659 Y80.620 E138.8173 F2400
G0 X163.597 Y79.992 F4320
G1 X158.632 Y75.027 E139.1092 F2400
G0 X159.438 Y75.268 F4320
G1 X163.616 Y79.445 E139.3548 F2400
G0 X163.667 Y78.931 F4320
G1 X160.244 Y75.508 E139.5561 F2400
G0 X161.050 Y75.748 F4320
G1 X163.755 Y78.453 E139.7151 F2400
G0 X163.886 Y78.019 F4320
G1 X161.856 Y75.988 E139.8345 F2400
G0 X162.662 Y76.229 F4320
G1 X164.018 Y77.585 E139.9142 F2400
G0 X164.179 Y77.180 F4320
G1 X163.468 Y76.469 E139.9560 F2400
G0 X158.975 Y79.330 F4320
G1 X176.501 Y96.856 E140.9865 F2400
G0 X175.935 Y96.856 F4320
G1 X159.012 Y79.933 E141.9815 F2400
G0 X158.938 Y80.424 F4320
G1 X175.369 Y96.856 E142.9476 F2400
G0 X174.804 Y96.856 F4320
G1 X158.791 Y80.843 E143.8890 F2400
G0 X158.590 Y81.208 F4320
G1 X174.238 Y96.856 E144.8091 F2400
G0 X173.672 Y96.856 F4320
G1 X158.335 Y81.519 E145.7108 F2400
G0 X158.032 Y81.781 F4320
G1 X173.106 Y96.856 E146.5972 F2400
G0 X172.541 Y96.856 F4320
G1 X157.682 Y81.997 E147.4708 F2400
G0 X157.280 Y82.161 F4320
G1 X171.975 Y96.856 E148.3348 F2400
G0 X171.409 Y96.856 F4320
G1 X156.810 Y82.256 E149.1931 F2400
G0 X156.238 Y82.250 F4320
G1 X170.844 Y96.856 E150.0519 F2400
G0 X170.278 Y96.856 F4320
G1 X155.403 Y81.980 E150.9265 F2400
G0 X150.519 Y96.330 F4320
G1 X151.045 Y96.856 E150.9574 F2400
G0 X151.610 Y96.856 F4320
G1 X150.519 Y95.764 E151.0216 F2400
G0 X150.519 Y95.198 F4320
G1 X152.176 Y96.856 E151.1191 F2400
G0 X152.742 Y96.856 F4320
G1 X150.519 Y94.633 E151.2498 F2400
G0 X150.519 Y94.067 F4320
G1 X153.308 Y96.856 E151.4137 F2400
G0 X153.873 Y96.856 F4320
G1 X150.519 Y93.501 E151.6110 F2400
G0 X150.519 Y92.936 F4320
G1 X154.439 Y96.856 E151.8415 F2400
G0 X155.005 Y96.856 F4320
G1 X150.519 Y92.370 E152.1052 F2400
G0 X150.519 Y91.804 F4320
G1 X155.570 Y96.856 E152.4022 F2400
G0 X156.136 Y96.856 F4320
G1 X150.519 Y91.239 E152.7325 F2400
G0 X150.519 Y90.673 F4320
G1 X156.702 Y96.856 E153.0960 F2400
G0 X157.267 Y96.856 F4320
G1 X150.519 Y90.107 E153.4928 F2400
G0 X150.519 Y89.541 F4320
G1 X157.833 Y96.856 E153.9228 F2400
G0 X158.399 Y96.856 F4320
G1 X150.519 Y88.976 E154.3861 F2400
G0 X150.519 Y88.410 F4320
G1 X158.964 Y96.856 E154.8827 F2400
G0 X159.530 Y96.856 F4320
G1 X150.519 Y87.844 E155.4125 F2400
G0 X150.519 Y87.279 F4320
G1 X160.096 Y96.856 E155.9756 F2400
G0 X160.661 Y96.856 F4320
G1 X150.519 Y86.713 E156.5719 F2400
G0 X150.519 Y86.147 F4320
G1 X161.227 Y96.856 E157.2015 F2400
G0 X161.793 Y96.856 F4320
G1 X150.519 Y85.582 E157.8644 F2400
G0 X150.519 Y85.016 F4320
G1 X162.358 Y96.856 E158.5605 F2400
G0 X162.924 Y96.856 F4320
G1 X150.519 Y84.450 E159.2899 F2400
G0 X150.519 Y83.885 F4320
G1 X163.490 Y96.856 E160.0526 F2400
G0 X164.056 Y96.856 F4320
G1 X150.519 Y83.319 E160.8485 F2400
G0 X150.519 Y82.753 F4320
G1 X164.621 Y96.856 E161.6776 F2400
G0 X165.187 Y96.856 F4320
G1 X150.519 Y82.188 E162.5401 F2400
G0 X150.519 Y81.622 F4320
G1 X165.753 Y96.856 E163.4358 F2400
G0 X166.318 Y96.856 F4320
G1 X150.519 Y81.056 E164.3647 F2400
G0 X150.519 Y80.490 F4320
G1 X166.884 Y96.856 E165.3269 F2400
G0 X167.450 Y96.856 F4320
G1 X150.519 Y79.925 E166.3224 F2400
G0 X150.519 Y79.359 F4320
G1 X168.015 Y96.856 E167.3511 F2400
G0 X168.581 Y96.856 F4320
G1 X150.519 Y78.793 E168.4131 F2400
G0 X150.519 Y78.228 F4320
G1 X169.147 Y96.856 E169.5084 F2400
G0 X179.525 Y85.738 F4320
G1 X190.643 Y96.856 E170.1621 F2400
G0 X191.208 Y96.856 F4320
G1 X180.088 Y85.735 E170.8159 F2400
G0 X180.652 Y85.733 F4320
G1 X191.774 Y96.856 E171.4698 F2400
G0 X192.340 Y96.856 F4320
G1 X181.215 Y85.731 E172.1239 F2400
G0 X181.779 Y85.729 F4320
G1 X192.905 Y96.856 E172.7781 F2400
G0 X193.471 Y96.856 F4320
G1 X182.342 Y85.726 E173.4325 F2400
G0 X182.906 Y85.724 F4320
G1 X194.037 Y96.856 E174.0870 F2400
G0 X194.603 Y96.856 F4320
G1 X183.469 Y85.722 E174.7416 F2400
G0 X184.032 Y85.720 F4320
G1 X195.168 Y96.856 E175.3963 F2400
G0 X195.734 Y96.856 F4320
G1 X184.596 Y85.718 E176.0512 F2400
G0 X185.159 Y85.715 F4320
G1 X196.300 Y96.856 E176.7062 F2400
G0 X196.865 Y96.856 F4320
G1 X185.723 Y85.713 E177.3613 F2400
G0 X186.286 Y85.711 F4320
G1 X197.431 Y96.856 E178.0166 F2400
G0 X197.997 Y96.856 F4320
G1 X186.850 Y85.709 E178.6720 F2400
G0 X187.413 Y85.707 F4320
G1 X198.562 Y96.856 E179.3275 F2400
G0 X199.128 Y96.856 F4320
G1 X187.977 Y85.704 E179.9832 F2400
G0 X188.540 Y85.702 F4320
G1 X199.694 Y96.856 E180.6390 F2400
G0 X200.259 Y96.856 F4320
G1 X189.104 Y85.700 E181.2949 F2400
G0 X189.667 Y85.698 F4320
G1 X200.825 Y96.856 E181.9509 F2400
G0 X201.391 Y96.856 F4320
G1 X190.231 Y85.696 E182.6071 F2400
G0 X190.794 Y85.693 F4320
G1 X201.956 Y96.856 E183.2634 F2400
G0 X202.522 Y96.856 F4320
G1 X191.358 Y85.691 E183.9198 F2400
G0 X191.921 Y85.689 F4320
G1 X203.088 Y96.856 E184.5764 F2400
G0 X203.653 Y96.856 F4320
G1 X192.485 Y85.687 E185.2331 F2400
G0 X193.048 Y85.685 F4320
G1 X204.219 Y96.856 E185.8899 F2400
G0 X204.785 Y96.856 F4320
G1 X193.612 Y85.682 E186.5468 F2400
G0 X194.175 Y85.680 F4320
G1 X205.351 Y96.856 E187.2039 F2400
G0 X205.916 Y96.856 F4320
G1 X194.900 Y85.839 E187.8516 F2400
G0 X195.706 Y86.080 F4320
G1 X206.482 Y96.856 E188.4852 F2400
G0 X207.048 Y96.856 F4320
G1 X196.512 Y86.320 E189.1047 F2400
G0 X197.318 Y86.560 F4320
G1 X207.613 Y96.856 E189.7100 F2400
G0 X208.179 Y96.856 F4320
G1 X198.124 Y86.800 E190.3012 F2400
G0 X198.930 Y87.041 F4320
G1 X208.745 Y96.856 E190.8783 F2400
G0 X209.310 Y96.856 F4320
G1 X199.736 Y87.281 E191.4413 F2400
G0 X200.542 Y87.521 F4320
G1 X209.876 Y96.856 E191.9901 F2400
G0 X210.442 Y96.856 F4320
G1 X201.348 Y87.761 E192.5248 F2400
G0 X202.153 Y88.002 F4320
G1 X211.007 Y96.856 E193.0454 F2400
G0 X211.573 Y96.856 F4320
G1 X202.959 Y88.242 E193.5518 F2400
G0 X203.765 Y88.482 F4320
G1 X212.139 Y96.856 E194.0441 F2400
G0 X212.598 Y96.749 F4320
G1 X204.571 Y88.722 E194.5161 F2400
G0 X205.377 Y88.963 F4320
G1 X212.598 Y96.183 E194.9406 F2400
G0 X212.598 Y95.618 F4320
G1 X206.183 Y89.203 E195.3178 F2400
G0 X206.989 Y89.443 F4320
G1 X212.598 Y95.052 E195.6476 F2400
G0 X212.598 Y94.486 F4320
G1 X207.795 Y89.684 E195.9300 F2400
G0 X208.601 Y89.924 F4320
G1 X212.598 Y93.921 E196.1650 F2400
G0 X212.598 Y93.355 F4320
G1 X209.407 Y90.164 E196.3526 F2400
G0 X210.213 Y90.404 F4320
G1 X212.598 Y92.789 E196.4928 F2400
G0 X212.598 Y92.224 F4320
G1 X211.019 Y90.645 E196.5857 F2400
G0 X211.825 Y90.885 F4320
G1 X212.598 Y91.658 E196.6311 F2400
G0 F3000 E195.6311
G0 X148.581 Y136.252 F4320
G0 F3000 E196.6311
G1 X151.321 Y138.993 E196.7922 F2400
G0 X150.755 Y138.993 F4320
G1 X148.581 Y136.818 E196.9201 F2400
G0 X148.582 Y137.385 F4320
G1 X150.190 Y138.993 E197.0146 F2400
G0 X149.624 Y138.993 F4320
G1 X148.582 Y137.951 E197.0759 F2400
G0 X148.583 Y138.517 F4320
G1 X149.058 Y138.993 E197.1039 F2400
G0 X148.423 Y139.700 F4320
;segType:Perimeter
G1 X147.872 Y139.547 E197.1276 F1439
G1 X147.823 Y139.295 E197.1383
G1 X147.792 Y100.546 E198.7493
G1 X147.875 Y100.411 E198.7559
G1 X147.959 Y100.339 E198.7605
G1 X148.113 Y100.281 E198.7673
G1 X148.455 Y100.213 E198.7818
G1 X214.681 Y100.213 E201.5352
G1 X215.125 Y100.313 E201.5541
G1 X215.227 Y100.374 E201.5590
G1 X215.352 Y100.597 E201.5696
G1 X215.288 Y139.295 E203.1785
G1 X215.217 Y139.612 E203.1921
G1 X215.056 Y139.707 E203.1998
G1 X214.759 Y139.753 E203.2123
G1 X148.352 Y139.753 E205.9732
G1 X148.055 Y139.707 E205.9857
G1 X147.935 Y139.637 E205.9914
G0 X147.991 Y138.839 F4320
G0 X148.222 Y138.512
;segType:Loop
G1 X148.192 Y100.781 E207.5601 F2400
G1 X148.270 Y100.658 E207.5662
G1 X148.494 Y100.613 E207.5757
G1 X214.636 Y100.613 E210.3256
G1 X214.898 Y100.672 E210.3367
G1 X214.952 Y100.781 E210.3418
G1 X214.888 Y139.250 E211.9412
G1 X214.728 Y139.353 E211.9491
G1 X148.383 Y139.353 E214.7074
G1 X148.223 Y139.256 E214.7151
G1 X148.223 Y138.712 E214.7378
G0 F3000 E213.7378
G0 X210.718 Y138.993 F4320
G0 F3000 E214.7378
;segType:HShell
G1 X190.224 Y118.499 E215.9427 F2400
G0 X189.678 Y118.822 F4320
;segType:Perimeter
G1 X189.699 Y119.421 E215.9677 F1439
G1 X189.756 Y119.998 E215.9918
G1 X189.696 Y120.611 E216.0174
G1 X189.515 Y121.211 E216.0434
G1 X189.221 Y121.765 E216.0695
G1 X188.824 Y122.251 E216.0956
G1 X188.340 Y122.650 E216.1217
G1 X187.787 Y122.947 E216.1478
G1 X187.187 Y123.131 E216.1739
G1 X186.563 Y123.194 E216.1999
G1 X185.938 Y123.134 E216.2260
G1 X185.335 Y122.952 E216.2522
G1 X184.783 Y122.658 E216.2782
G1 X184.297 Y122.261 E216.3043
G1 X183.898 Y121.777 E216.3304
G1 X183.601 Y121.224 E216.3565
G1 X183.418 Y120.624 E216.3826
G1 X183.355 Y120.000 E216.4086
G1 X183.415 Y119.376 E216.4347
G1 X183.596 Y118.775 E216.4608
G1 X183.890 Y118.221 E216.4869
G1 X184.287 Y117.735 E216.5130
G1 X184.771 Y117.335 E216.5391
G1 X185.324 Y117.039 E216.5652
G1 X185.924 Y116.855 E216.5912
G1 X186.548 Y116.792 E216.6173
G1 X187.173 Y116.852 E216.6434
G1 X187.774 Y117.033 E216.6695
G1 X188.328 Y117.328 E216.6956
G1 X188.814 Y117.725 E216.7217
G1 X189.213 Y118.209 E216.7478
G1 X189.510 Y118.761 E216.7738
G1 X189.676 Y119.304 E216.7975
G0 X189.887 Y119.866 F4320
G0 X190.109 Y120.496
;segType:Loop
G1 X190.090 Y120.689 E216.8055 F2400
G1 X189.887 Y121.364 E216.8349
G1 X189.556 Y121.988 E216.8642
G1 X189.109 Y122.535 E216.8936
G1 X188.564 Y122.984 E216.9230
G1 X187.942 Y123.318 E216.9523
G1 X187.266 Y123.525 E216.9817
G1 X186.564 Y123.596 E217.0110
G1 X185.861 Y123.528 E217.0404
G1 X185.182 Y123.324 E217.0699
G1 X184.561 Y122.993 E217.0992
G1 X184.014 Y122.546 E217.1285
G1 X183.565 Y122.001 E217.1579
G1 X183.230 Y121.379 E217.1872
G1 X183.024 Y120.704 E217.2166
G1 X182.953 Y120.001 E217.2460
G1 X183.021 Y119.298 E217.2753
G1 X183.224 Y118.622 E217.3047
G1 X183.556 Y117.998 E217.3340
G1 X184.002 Y117.451 E217.3634
G1 X184.547 Y117.002 E217.3928
G1 X185.169 Y116.668 E217.4221
G1 X185.845 Y116.461 E217.4515
G1 X186.547 Y116.390 E217.4809
G1 X187.250 Y116.458 E217.5102
G1 X187.927 Y116.661 E217.5396
G1 X188.550 Y116.993 E217.5690
G1 X189.097 Y117.440 E217.5983
G1 X189.547 Y117.985 E217.6277
G1 X189.881 Y118.607 E217.6571
G1 X190.088 Y119.283 E217.6864
G1 X190.158 Y119.998 E217.7164
G1 X190.129 Y120.297 E217.7288
G0 F3000 E216.7288
G0 X214.534 Y135.455 F4320
G0 F3000 E217.7288
;segType:HShell
G1 X204.717 Y125.637 E218.3061 F2400
G0 X205.191 Y125.190 F4320
;segType:Perimeter
G1 X204.511 Y124.769 E218.3393 F1439
G1 X203.660 Y124.313 E218.3795
G1 X202.875 Y123.668 E218.4217
G1 X202.228 Y122.877 E218.4642
G1 X201.755 Y121.993 E218.5059
G1 X201.454 Y121.004 E218.5489
G1 X201.355 Y120.004 E218.5906
G1 X201.453 Y118.990 E218.6330
G1 X201.747 Y118.013 E218.6754
G1 X202.235 Y117.099 E218.7185
G1 X202.870 Y116.324 E218.7602
G1 X203.669 Y115.667 E218.8032
G1 X204.555 Y115.193 E218.8449
G1 X205.548 Y114.891 E218.8881
G1 X206.544 Y114.793 E218.9297
G1 X207.559 Y114.890 E218.9721
G1 X208.547 Y115.188 E219.0150
G1 X209.435 Y115.663 E219.0568
G1 X210.224 Y116.308 E219.0992
G1 X210.882 Y117.107 E219.1423
G1 X211.356 Y117.992 E219.1840
G1 X211.654 Y118.967 E219.2264
G1 X211.756 Y120.001 E219.2696
G1 X211.655 Y121.011 E219.3118
G1 X211.358 Y121.989 E219.3543
G1 X210.876 Y122.888 E219.3967
G1 X210.241 Y123.662 E219.4383
G1 X209.439 Y124.321 E219.4815
G1 X208.541 Y124.800 E219.5238
G1 X207.563 Y125.095 E219.5663
G1 X206.567 Y125.193 E219.6079
G1 X205.552 Y125.095 E219.6503
G1 X204.622 Y124.815 E219.6907
G0 X204.037 Y124.678 F4320
G0 X203.359 Y124.583
;segType:Loop
G1 X202.591 Y123.951 E219.7320 F2400
G1 X201.894 Y123.100 E219.7778
G1 X201.384 Y122.147 E219.8227
G1 X201.060 Y121.083 E219.8690
G1 X200.953 Y120.005 E219.9140
G1 X201.058 Y118.912 E219.9596
G1 X201.375 Y117.860 E220.0053
G1 X201.900 Y116.876 E220.0517
G1 X202.586 Y116.040 E220.0966
G1 X203.446 Y115.332 E220.1429
G1 X204.401 Y114.821 E220.1880
G1 X205.469 Y114.497 E220.2344
G1 X206.544 Y114.391 E220.2793
G1 X207.636 Y114.496 E220.3249
G1 X208.700 Y114.817 E220.3711
G1 X209.658 Y115.328 E220.4162
G1 X210.508 Y116.023 E220.4619
G1 X211.216 Y116.884 E220.5082
G1 X211.727 Y117.838 E220.5532
G1 X212.048 Y118.888 E220.5989
G1 X212.158 Y120.001 E220.6454
G1 X212.050 Y121.090 E220.6909
G1 X211.729 Y122.143 E220.7366
G1 X211.210 Y123.112 E220.7823
G1 X210.525 Y123.946 E220.8272
G1 X209.662 Y124.655 E220.8736
G1 X208.694 Y125.171 E220.9192
G1 X207.641 Y125.489 E220.9650
G1 X206.567 Y125.595 E221.0098
G1 X205.475 Y125.490 E221.0555
G1 X204.410 Y125.169 E221.1017
G1 X203.524 Y124.694 E221.1435
G0 X203.722 Y125.209 F4320
;segType:HShell
G1 X214.533 Y136.020 E221.7791 F2400
G0 X214.533 Y136.585 F4320
G1 X178.921 Y100.973 E223.8730 F2400
G0 X178.355 Y100.973 F4320
G1 X214.532 Y137.149 E226.0000 F2400
G0 X214.531 Y137.714 F4320
G1 X177.790 Y100.973 E228.1602 F2400
G0 X177.224 Y100.973 F4320
G1 X214.530 Y138.279 E230.3536 F2400
G0 X214.529 Y138.844 F4320
G1 X176.658 Y100.973 E232.5802 F2400
G0 X176.093 Y100.973 F4320
G1 X214.112 Y138.993 E234.8156 F2400
G0 X213.546 Y138.993 F4320
G1 X175.527 Y100.973 E237.0510 F2400
G0 X174.961 Y100.973 F4320
G1 X212.981 Y138.993 E239.2864 F2400
G0 X212.415 Y138.993 F4320
G1 X174.396 Y100.973 E241.5218 F2400
G0 X173.830 Y100.973 F4320
G1 X211.849 Y138.993 E243.7572 F2400
G0 X211.284 Y138.993 F4320
G1 X173.264 Y100.973 E245.9926 F2400
G0 X179.487 Y100.973 F4320
G1 X201.338 Y122.824 E247.2774 F2400
G0 X200.912 Y121.832 F4320
G1 X180.053 Y100.973 E248.5038 F2400
G0 X180.618 Y100.973 F4320
G1 X200.695 Y121.050 E249.6842 F2400
G0 X200.633 Y120.422 F4320
G1 X181.184 Y100.973 E250.8277 F2400
G0 X181.750 Y100.973 F4320
G1 X200.608 Y119.832 E251.9365 F2400
G0 X200.658 Y119.316 F4320
G1 X182.315 Y100.973 E253.0150 F2400
G0 X182.881 Y100.973 F4320
G1 X200.714 Y118.806 E254.0635 F2400
G0 X200.845 Y118.372 F4320
G1 X183.447 Y100.973 E255.0865 F2400
G0 X184.012 Y100.973 F4320
G1 X200.976 Y117.937 E256.0839 F2400
G0 X201.140 Y117.535 F4320
G1 X184.578 Y100.973 E257.0577 F2400
G0 X185.144 Y100.973 F4320
G1 X201.337 Y117.166 E258.0098 F2400
G0 X201.534 Y116.798 F4320
G1 X185.709 Y100.973 E258.9402 F2400
G0 X186.275 Y100.973 F4320
G1 X201.769 Y116.467 E259.8512 F2400
G0 X202.024 Y116.157 F4320
G1 X186.841 Y100.973 E260.7439 F2400
G0 X187.406 Y100.973 F4320
G1 X202.279 Y115.846 E261.6184 F2400
G0 X202.578 Y115.580 F4320
G1 X187.972 Y100.973 E262.4772 F2400
G0 X188.538 Y100.973 F4320
G1 X202.889 Y115.324 E263.3210 F2400
G0 X203.199 Y115.069 F4320
G1 X189.103 Y100.973 E264.1497 F2400
G0 X189.669 Y100.973 F4320
G1 X203.559 Y114.863 E264.9664 F2400
G0 X203.928 Y114.666 F4320
G1 X190.235 Y100.973 E265.7715 F2400
G0 X190.801 Y100.973 F4320
G1 X204.302 Y114.475 E266.5654 F2400
G0 X204.736 Y114.343 F4320
G1 X191.366 Y100.973 E267.3515 F2400
G0 X191.932 Y100.973 F4320
G1 X205.170 Y114.211 E268.1298 F2400
G0 X205.642 Y114.118 F4320
G1 X192.498 Y100.973 E268.9026 F2400
G0 X193.063 Y100.973 F4320
G1 X206.157 Y114.067 E269.6725 F2400
G0 X206.700 Y114.044 F4320
G1 X193.629 Y100.973 E270.4410 F2400
G0 X194.195 Y100.973 F4320
G1 X207.326 Y114.104 E271.2131 F2400
G0 X208.024 Y114.237 F4320
G1 X194.760 Y100.973 E271.9929 F2400
G0 X195.326 Y100.973 F4320
G1 X208.834 Y114.481 E272.7871 F2400
G0 X210.334 Y115.415 F4320
G1 X195.892 Y100.973 E273.6362 F2400
G0 X214.590 Y101.570 F4320
G1 X213.994 Y100.973 E273.6713 F2400
G0 X213.428 Y100.973 F4320
G1 X214.589 Y102.135 E273.7396 F2400
G0 X214.588 Y102.699 F4320
G1 X212.862 Y100.973 E273.8411 F2400
G0 X212.297 Y100.973 F4320
G1 X214.587 Y103.264 E273.9758 F2400
G0 X214.587 Y103.829 F4320
G1 X211.731 Y100.973 E274.1437 F2400
G0 X211.165 Y100.973 F4320
G1 X214.586 Y104.394 E274.3448 F2400
G0 X214.585 Y104.958 F4320
G1 X210.600 Y100.973 E274.5791 F2400
G0 X210.034 Y100.973 F4320
G1 X214.584 Y105.523 E274.8467 F2400
G0 X214.583 Y106.088 F4320
G1 X209.468 Y100.973 E275.1474 F2400
G0 X208.902 Y100.973 F4320
G1 X214.582 Y106.653 E275.4813 F2400
G0 X214.581 Y107.217 F4320
G1 X208.337 Y100.973 E275.8484 F2400
G0 X207.771 Y100.973 F4320
G1 X214.580 Y107.782 E276.2488 F2400
G0 X214.579 Y108.347 F4320
G1 X207.205 Y100.973 E276.6823 F2400
G0 X206.640 Y100.973 F4320
G1 X214.578 Y108.912 E277.1490 F2400
G0 X214.577 Y109.476 F4320
G1 X206.074 Y100.973 E277.6490 F2400
G0 X205.508 Y100.973 F4320
G1 X214.576 Y110.041 E278.1821 F2400
G0 X214.575 Y110.606 F4320
G1 X204.943 Y100.973 E278.7485 F2400
G0 X204.377 Y100.973 F4320
G1 X214.574 Y111.171 E279.3481 F2400
G0 X214.574 Y111.735 F4320
G1 X203.811 Y100.973 E279.9809 F2400
G0 X203.246 Y100.973 F4320
G1 X214.573 Y112.300 E280.6469 F2400
G0 X214.572 Y112.865 F4320
G1 X202.680 Y100.973 E281.3461 F2400
G0 X202.114 Y100.973 F4320
G1 X214.571 Y113.430 E282.0784 F2400
G0 X214.570 Y113.994 F4320
G1 X201.549 Y100.973 E282.8440 F2400
G0 X200.983 Y100.973 F4320
G1 X214.569 Y114.559 E283.6428 F2400
G0 X214.568 Y115.124 F4320
G1 X200.417 Y100.973 E284.4748 F2400
G0 X199.852 Y100.973 F4320
G1 X214.567 Y115.689 E285.3400 F2400
G0 X214.566 Y116.253 F4320
G1 X199.286 Y100.973 E286.2384 F2400
G0 X198.720 Y100.973 F4320
G1 X214.565 Y116.818 E287.1701 F2400
G0 X214.564 Y117.383 F4320
G1 X198.154 Y100.973 E288.1349 F2400
G0 X197.589 Y100.973 F4320
G1 X214.563 Y117.948 E289.1329 F2400
G0 X214.562 Y118.512 F4320
G1 X197.023 Y100.973 E290.1642 F2400
G0 X196.457 Y100.973 F4320
G1 X214.561 Y119.077 E291.2287 F2400
G0 X214.560 Y119.642 F4320
G1 X211.128 Y116.210 E291.4304 F2400
G0 X212.065 Y117.712 F4320
G1 X214.560 Y120.207 E291.5771 F2400
G0 X214.559 Y120.771 F4320
G1 X212.314 Y118.527 E291.7091 F2400
G0 X212.443 Y119.221 F4320
G1 X214.558 Y121.336 E291.8334 F2400
G0 X214.557 Y121.901 F4320
G1 X212.505 Y119.849 E291.9541 F2400
G0 X212.481 Y120.391 F4320
G1 X214.556 Y122.466 E292.0761 F2400
G0 X214.555 Y123.030 F4320
G1 X212.430 Y120.906 E292.2010 F2400
G0 X212.338 Y121.379 F4320
G1 X214.554 Y123.595 E292.3313 F2400
G0 X214.553 Y124.160 F4320
G1 X212.206 Y121.813 E292.4693 F2400
G0 X212.074 Y122.247 F4320
G1 X214.552 Y124.725 E292.6150 F2400
G0 X214.551 Y125.290 F4320
G1 X211.882 Y122.620 E292.7719 F2400
G0 X211.684 Y122.988 F4320
G1 X214.550 Y125.854 E292.9404 F2400
G0 X214.549 Y126.419 F4320
G1 X211.480 Y123.350 E293.1209 F2400
G0 X211.225 Y123.661 F4320
G1 X214.548 Y126.984 E293.3163 F2400
G0 X214.547 Y127.549 F4320
G1 X210.970 Y123.971 E293.5266 F2400
G0 X210.701 Y124.268 F4320
G1 X214.546 Y128.113 E293.7527 F2400
G0 X214.546 Y128.678 F4320
G1 X210.390 Y124.523 E293.9970 F2400
G0 X210.080 Y124.778 F4320
G1 X214.545 Y129.243 E294.2595 F2400
G0 X214.544 Y129.808 F4320
G1 X209.752 Y125.016 E294.5412 F2400
G0 X209.383 Y125.212 F4320
G1 X214.543 Y130.372 E294.8446 F2400
G0 X214.542 Y130.937 F4320
G1 X209.014 Y125.409 E295.1696 F2400
G0 X208.612 Y125.572 F4320
G1 X214.541 Y131.502 E295.5183 F2400
G0 X214.540 Y132.067 F4320
G1 X208.177 Y125.704 E295.8924 F2400
G0 X207.743 Y125.835 F4320
G1 X214.539 Y132.631 E296.2920 F2400
G0 X214.538 Y133.196 F4320
G1 X207.233 Y125.891 E296.7215 F2400
G0 X206.718 Y125.942 F4320
G1 X214.537 Y133.761 E297.1812 F2400
G0 X214.536 Y134.326 F4320
G1 X206.125 Y125.914 E297.6758 F2400
G0 X205.499 Y125.854 F4320
G1 X214.535 Y134.890 E298.2071 F2400
G0 X210.152 Y138.993 F4320
G1 X190.450 Y119.291 E299.3655 F2400
G0 X190.512 Y119.918 F4320
G1 X209.587 Y138.993 E300.4870 F2400
G0 X209.021 Y138.993 F4320
G1 X190.476 Y120.448 E301.5774 F2400
G0 X190.393 Y120.931 F4320
G1 X208.455 Y138.993 E302.6394 F2400
G0 X207.890 Y138.993 F4320
G1 X190.263 Y121.366 E303.6758 F2400
G0 X190.087 Y121.756 F4320
G1 X207.324 Y138.993 E304.6893 F2400
G0 X206.758 Y138.993 F4320
G1 X189.891 Y122.125 E305.6810 F2400
G0 X189.646 Y122.446 F4320
G1 X206.193 Y138.993 E306.6539 F2400
G0 X205.627 Y138.993 F4320
G1 X189.392 Y122.757 E307.6084 F2400
G0 X189.087 Y123.019 F4320
G1 X205.061 Y138.993 E308.5477 F2400
G0 X204.496 Y138.993 F4320
G1 X188.777 Y123.275 E309.4718 F2400
G0 X188.412 Y123.474 F4320
G1 X203.930 Y138.993 E310.3842 F2400
G0 X203.364 Y138.993 F4320
G1 X188.037 Y123.666 E311.2854 F2400
G0 X187.604 Y123.798 F4320
G1 X202.798 Y138.993 E312.1788 F2400
G0 X202.233 Y138.993 F4320
G1 X187.140 Y123.899 E313.0662 F2400
G0 X186.626 Y123.951 F4320
G1 X201.667 Y138.993 E313.9506 F2400
G0 X201.101 Y138.993 F4320
G1 X186.013 Y123.904 E314.8377 F2400
G0 X185.269 Y123.726 F4320
G1 X200.536 Y138.993 E315.7353 F2400
G0 X199.970 Y138.993 F4320
G1 X183.875 Y122.898 E316.6817 F2400
G0 X183.658 Y122.681 F4320
G1 X161.951 Y100.973 E317.9580 F2400
G0 X161.385 Y100.973 F4320
G1 X199.404 Y138.993 E320.1934 F2400
G0 X198.839 Y138.993 F4320
G1 X160.819 Y100.973 E322.4288 F2400
G0 X160.254 Y100.973 F4320
G1 X198.273 Y138.993 E324.6641 F2400
G0 X197.707 Y138.993 F4320
G1 X159.688 Y100.973 E326.8995 F2400
G0 X159.122 Y100.973 F4320
G1 X197.142 Y138.993 E329.1349 F2400
G0 X196.576 Y138.993 F4320
G1 X158.556 Y100.973 E331.3703 F2400
G0 X157.991 Y100.973 F4320
G1 X196.010 Y138.993 E333.6057 F2400
G0 X195.445 Y138.993 F4320
G1 X157.425 Y100.973 E335.8410 F2400
G0 X156.859 Y100.973 F4320
G1 X194.879 Y138.993 E338.0764 F2400
G0 X194.313 Y138.993 F4320
G1 X156.294 Y100.973 E340.3118 F2400
G0 X155.728 Y100.973 F4320
G1 X193.747 Y138.993 E342.5472 F2400
G0 X193.182 Y138.993 F4320
G1 X155.162 Y100.973 E344.7826 F2400
G0 X154.597 Y100.973 F4320
G1 X192.616 Y138.993 E347.0180 F2400
G0 X192.050 Y138.993 F4320
G1 X154.031 Y100.973 E349.2533 F2400
G0 X153.465 Y100.973 F4320
G1 X191.485 Y138.993 E351.4887 F2400
G0 X190.919 Y138.993 F4320
G1 X152.900 Y100.973 E353.7241 F2400
G0 X152.334 Y100.973 F4320
G1 X190.353 Y138.993 E355.9595 F2400
G0 X189.788 Y138.993 F4320
G1 X151.768 Y100.973 E358.1949 F2400
G0 X151.203 Y100.973 F4320
G1 X189.222 Y138.993 E360.4302 F2400
G0 X188.656 Y138.993 F4320
G1 X150.637 Y100.973 E362.6656 F2400
G0 X150.071 Y100.973 F4320
G1 X188.091 Y138.993 E364.9010 F2400
G0 X187.525 Y138.993 F4320
G1 X149.506 Y100.973 E367.1364 F2400
G0 X148.940 Y100.973 F4320
G1 X186.959 Y138.993 E369.3718 F2400
G0 X186.394 Y138.993 F4320
G1 X148.552 Y101.151 E371.5967 F2400
G0 X148.553 Y101.718 F4320
G1 X185.828 Y138.993 E373.7883 F2400
G0 X185.262 Y138.993 F4320
G1 X148.553 Y102.284 E375.9467 F2400
G0 X148.554 Y102.850 F4320
G1 X184.697 Y138.993 E378.0718 F2400
G0 X184.131 Y138.993 F4320
G1 X148.554 Y103.416 E380.1635 F2400
G0 X148.555 Y103.982 F4320
G1 X183.565 Y138.993 E382.2220 F2400
G0 X182.999 Y138.993 F4320
G1 X148.555 Y104.548 E384.2472 F2400
G0 X148.555 Y105.114 F4320
G1 X182.434 Y138.993 E386.2391 F2400
G0 X181.868 Y138.993 F4320
G1 X148.556 Y105.681 E388.1978 F2400
G0 X148.556 Y106.247 F4320
G1 X181.302 Y138.993 E390.1231 F2400
G0 X180.737 Y138.993 F4320
G1 X148.557 Y106.813 E392.0152 F2400
G0 X148.557 Y107.379 F4320
G1 X180.171 Y138.993 E393.8739 F2400
G0 X179.605 Y138.993 F4320
G1 X148.558 Y107.945 E395.6994 F2400
G0 X148.558 Y108.511 F4320
G1 X179.040 Y138.993 E397.4916 F2400
G0 X178.474 Y138.993 F4320
G1 X148.559 Y109.077 E399.2505 F2400
G0 X148.559 Y109.644 F4320
G1 X177.908 Y138.993 E400.9761 F2400
G0 X177.343 Y138.993 F4320
G1 X148.560 Y110.210 E402.6685 F2400
G0 X148.560 Y110.776 F4320
G1 X176.777 Y138.993 E404.3275 F2400
G0 X176.211 Y138.993 F4320
G1 X148.561 Y111.342 E405.9533 F2400
G0 X148.561 Y111.908 F4320
G1 X175.646 Y138.993 E407.5457 F2400
G0 X175.080 Y138.993 F4320
G1 X148.561 Y112.474 E409.1049 F2400
G0 X148.562 Y113.040 F4320
G1 X174.514 Y138.993 E410.6308 F2400
G0 X173.948 Y138.993 F4320
G1 X148.562 Y113.607 E412.1234 F2400
G0 X148.563 Y114.173 F4320
G1 X173.383 Y138.993 E413.5827 F2400
G0 X172.817 Y138.993 F4320
G1 X148.563 Y114.739 E415.0087 F2400
G0 X148.564 Y115.305 F4320
G1 X172.251 Y138.993 E416.4015 F2400
G0 X171.686 Y138.993 F4320
G1 X148.564 Y115.871 E417.7609 F2400
G0 X148.565 Y116.437 F4320
G1 X171.120 Y138.993 E419.0871 F2400
G0 X170.554 Y138.993 F4320
G1 X148.565 Y117.003 E420.3800 F2400
G0 X148.566 Y117.570 F4320
G1 X169.989 Y138.993 E421.6396 F2400
G0 X169.423 Y138.993 F4320
G1 X148.566 Y118.136 E422.8659 F2400
G0 X148.567 Y118.702 F4320
G1 X168.857 Y138.993 E424.0589 F2400
G0 X168.292 Y138.993 F4320
G1 X148.567 Y119.268 E425.2187 F2400
G0 X148.567 Y119.834 F4320
G1 X167.726 Y138.993 E426.3451 F2400
G0 X167.160 Y138.993 F4320
G1 X148.568 Y120.400 E427.4383 F2400
G0 X148.568 Y120.966 F4320
G1 X166.595 Y138.993 E428.4981 F2400
G0 X166.029 Y138.993 F4320
G1 X148.569 Y121.533 E429.5247 F2400
G0 X148.569 Y122.099 F4320
G1 X165.463 Y138.993 E430.5180 F2400
G0 X164.898 Y138.993 F4320
G1 X148.570 Y122.665 E431.4780 F2400
G0 X148.570 Y123.231 F4320
G1 X164.332 Y138.993 E432.4047 F2400
G0 X163.766 Y138.993 F4320
G1 X148.571 Y123.797 E433.2982 F2400
G0 X148.571 Y124.363 F4320
G1 X163.200 Y138.993 E434.1583 F2400
G0 X162.635 Y138.993 F4320
G1 X148.572 Y124.929 E434.9852 F2400
G0 X148.572 Y125.496 F4320
G1 X162.069 Y138.993 E435.7788 F2400
G0 X161.503 Y138.993 F4320
G1 X148.572 Y126.062 E436.5391 F2400
G0 X148.573 Y126.628 F4320
G1 X160.938 Y138.993 E437.2660 F2400
G0 X160.372 Y138.993 F4320
G1 X148.573 Y127.194 E437.9598 F2400
G0 X148.574 Y127.760 F4320
G1 X159.806 Y138.993 E438.6202 F2400
G0 X159.241 Y138.993 F4320
G1 X148.574 Y128.326 E439.2473 F2400
G0 X148.575 Y128.892 F4320
G1 X158.675 Y138.993 E439.8412 F2400
G0 X158.109 Y138.993 F4320
G1 X148.575 Y129.459 E440.4018 F2400
G0 X148.576 Y130.025 F4320
G1 X157.544 Y138.993 E440.9290 F2400
G0 X156.978 Y138.993 F4320
G1 X148.576 Y130.591 E441.4230 F2400
G0 X148.577 Y131.157 F4320
G1 X156.412 Y138.993 E441.8837 F2400
G0 X155.847 Y138.993 F4320
G1 X148.577 Y131.723 E442.3112 F2400
G0 X148.578 Y132.289 F4320
G1 X155.281 Y138.993 E442.7053 F2400
G0 X154.715 Y138.993 F4320
G1 X148.578 Y132.855 E443.0661 F2400
G0 X148.578 Y133.422 F4320
G1 X154.149 Y138.993 E443.3937 F2400
G0 X153.584 Y138.993 F4320
G1 X148.579 Y133.988 E443.6880 F2400
G0 X148.579 Y134.554 F4320
G1 X153.018 Y138.993 E443.9489 F2400
G0 X152.452 Y138.993 F4320
G1 X148.580 Y135.120 E444.1766 F2400
G0 X148.580 Y135.686 F4320
G1 X151.887 Y138.993 E444.3710 F2400
G0 F3000 E443.3710
G0 X151.786 Y139.353 F4320
G0 X162.617 Y100.613
G0 X162.516 Y100.973
G0 F3000 E444.3710
G1 X182.823 Y121.280 E445.5650 F2400
G0 X182.645 Y120.536 F4320
G1 X163.082 Y100.973 E446.7152 F2400
G0 X163.648 Y100.973 F4320
G1 X182.599 Y119.924 E447.8295 F2400
G0 X182.648 Y119.408 F4320
G1 X164.213 Y100.973 E448.9134 F2400
G0 X164.779 Y100.973 F4320
G1 X182.751 Y118.945 E449.9700 F2400
G0 X182.882 Y118.510 F4320
G1 X165.345 Y100.973 E451.0011 F2400
G0 X165.910 Y100.973 F4320
G1 X183.074 Y118.137 E452.0103 F2400
G0 X183.275 Y117.772 F4320
G1 X166.476 Y100.973 E452.9980 F2400
G0 X167.042 Y100.973 F4320
G1 X183.529 Y117.461 E453.9674 F2400
G0 X183.792 Y117.158 F4320
G1 X167.607 Y100.973 E454.9190 F2400
G0 X168.173 Y100.973 F4320
G1 X184.102 Y116.902 E455.8556 F2400
